!!!!SEGMENT: pl-cz--iii-111--001-004_dankowski-adalbert--vesperae-d-nisi-dominus.krn
!!!cenid: 18xx:793
!!!COM: Dankowski, Adalbert
!!!COM-rismID: pe30000793
!!!CDT: ~1760-~1836
!!!CNT: Polish
!!!OPR: Vesperae D
!!!OTL: Nisi Dominus
!!!OMV: 004
!!!PDT:
!!!AGN: Sacred; Vespers
!!!SMS-siglum: PL-CZ
!!!SMS-shelfmark: III-111
!!!SMS-shelfwork: 001-004 M
!!!SMS-variant:
!!!SMS-altvar:
!!!NIFC-rismSourceID: 300033580
!!!NIFC-rismChildID: 300033580
!!!NIFC-islandoraID: pl-cz:9975
!!!URL-pdf-islandora: https://repozytorium.nifc.pl/islandora/object/pl-cz%3A9975/datastream/PDF/view
!!!URL-scan: https://polish.musicsources.pl/pl/lokalizacje/galeria/rekopisy/970 @EN{Scan on Polish Music Sources Website} @PL{Skany w portalu Dziedzictwo Muzyki Polskiej w otwartym dostępie}
!!!IIIF:
!!!ONB-nifc: UWAGA: części Vesperae: Dixit Dominus, Laudate pueri, Laetatus sum, Nisi Dominus, Lauda Jerusalem, Magnificat, Et misericordia, Gloria patri
!!!AIN: 1 alto 1 bass 2 cor 1 organ 1 soprn 1 tenor 2 violn
!!!key: A
**kern	**fba	**dynam	**kern	**dynam	**kern	**dynam	**kern	**text	**kern	**text	**kern	**text	**kern	**text	**kern	**kern
*part9	*	*part9	*part8	*part8	*part7	*part7	*part6	*part6	*part5	*part5	*part4	*part4	*part3	*part3	*part2	*part1
*group4	*	*	*group3	*	*group3	*	*group2	*group2	*group2	*group2	*group2	*group2	*group2	*group2	*group1	*group1
*staff9	*	*	*staff8	*	*staff7	*	*staff6	*staff6	*staff5	*staff5	*staff4	*staff4	*staff3	*staff3	*staff2	*staff1
*I"Organo	*	*	*I"Violino Secondo	*	*I"Violino Primo	*	*I"Baſso	*	*I"Tenore	*	*I"Alto	*	*I"Canto	*	*I"Cornu Secondo Ex D:	*I"Cornu Primo Ex D:
*I'org	*	*	*I'vl 2	*	*I'vl 1	*	*I'B	*	*I'T	*	*I'A	*	*I'S	*	*I'cor 2	*I'cor 1
*Iorgan	*	*	*Ivioln	*	*Ivioln	*	*Ibass	*	*Itenor	*	*Ialto	*	*Isoprn	*	*Icor	*Icor
*ICklav	*	*	*ICstr	*	*ICstr	*	*ICvox	*	*ICvox	*	*ICvox	*	*ICvox	*	*ICbras	*ICbras
*clefF4	*	*	*clefG2	*	*clefG2	*	*clefF4	*	*clefC4	*	*clefC3	*	*clefC1	*	*clefG2	*clefG2
*	*	*	*	*	*	*	*	*	*	*	*	*	*	*	*ITrd-1c-2	*ITrd-1c-2
*k[f#c#g#]	*	*	*k[f#c#g#]	*	*k[f#c#g#]	*	*k[f#c#g#]	*	*k[c#f#g#]	*	*k[f#c#g#]	*	*k[f#c#g#]	*	*k[f#c#g#]	*k[f#c#g#]
*A:	*	*	*A:	*	*A:	*	*A:	*	*A:	*	*A:	*	*A:	*	*A:	*A:
*M3/8	*	*	*M3/8	*	*M3/8	*	*M3/8	*	*M3/8	*	*M3/8	*	*M3/8	*	*M3/8	*M3/8
!	!	!	!	!	!	!	!	!	!	!	!	!	!LO:TX:t=P:znaki:problem= cc# zamiast c#	!	!	!LO:TX:a:t=Tacet
!LO:TX:a:i:t=alegretto tutti	!	!	!LO:TX:a:i:t=alegretto	!LO:DY:a:Bi:t=for.	!LO:TX:a:i:t=allegretto	!LO:DY:a:Bi:t=for&colon;	!LO:TX:a:i:t=allegretto	!	!LO:TX:a:i:t=allegretto	!	!LO:TX:a:i:t=alegretto	!	!LO:TX:a:i:t=allegretto	!	!LO:TX:a:t=Tacet	!
8r	.	.	32a/LLL	f	32cc#\LLL	f	8r	.	8r	.	8r	.	8r	.	8ryy	8ryy
.	.	.	32g#/	.	32b\	.	.	.	.	.	.	.	.	.	.	.
.	.	.	32a/	.	32cc#\	.	.	.	.	.	.	.	.	.	.	.
.	.	.	32b/JJJ	.	32dd\JJJ	.	.	.	.	.	.	.	.	.	.	.
=1	=1	=1	=1	=1	=1	=1	=1	=1	=1	=1	=1	=1	=1	=1	=1	=1
8A\	.	.	8cc#\	.	8ee\	.	8r	.	8r	.	8r	.	8r	.	4.ryy	4.ryy
8r	.	.	8r	.	8r	.	8A\	Ni-	8e\	Ni-	8cc#\	Ni-	8ee\	Ni-	.	.
!	!	!	!LO:TX:t=P:problem=łuk dopisany inną ręką (?)	!	!	!	!	!	!	!	!	!	!	!	!	!
.	.	.	8qb/	.	8qdd/	.	.	.	.	.	.	.	.	.	.	.
!	!	!	!LO:TX:t=P:problem=pod nutą 2 dopisana inną ręką (?)	!	!	!	!	!	!	!	!	!	!	!	!	!
8r	.	.	16a/LL	.	16cc#\LL	.	8A\	-ſi	8e\	-ſi	8a\	-ſi	8cc#\	-ſi	.	.
.	.	.	(32g#/L	.	32b\L	.	.	.	.	.	.	.	.	.	.	.
.	.	.	32a/JJJ)	.	32cc#\JJJ	.	.	.	.	.	.	.	.	.	.	.
=2	=2	=2	=2	=2	=2	=2	=2	=2	=2	=2	=2	=2	=2	=2	=2	=2
8E\	.	.	8b\	.	8dd\	.	8r	.	8r	.	8r	.	8r	.	4.ryy	4.ryy
*	*	*	*	*	*	*	*	*ij	*	*ij	*	*ij	*	*ij	*	*
8r	.	.	8r	.	8r	.	8E\	Ni-	8e\	Ni-	8b\	Ni-	8dd\	Ni-	.	.
!	!	!	!LO:TX:t=P:problem=łuk i 4 nad nutą dopisane inną ręką (?)	!	!	!	!	!	!	!	!	!	!	!	!	!
.	.	.	8qa/	.	8qcc#/	.	.	.	.	.	.	.	.	.	.	.
8r	.	.	16g#/LL	.	16b\LL	.	8E\	-ſi	8e\	-ſi	8g#\	-ſi	8b\	-ſi	.	.
.	.	.	(32f#/L	.	32a\L	.	.	.	.	.	.	.	.	.	.	.
.	.	.	32g#/JJJ)	.	32b\JJJ	.	.	.	.	.	.	.	.	.	.	.
=3	=3	=3	=3	=3	=3	=3	=3	=3	=3	=3	=3	=3	=3	=3	=3	=3
!LO:TX:t=P:problem=mixed beam	!	!	!	!	!	!	!	!	!	!	!	!	!	!	!	!
8A\L	.	.	8a/L	.	8cc#\L	.	8r	.	8r	.	8r	.	8r	.	4.ryy	4.ryy
8AA/	.	.	16cc#/L	.	16ee\L	.	8A\	Ni-	8e\	Ni-	8a\	Ni-	8cc#\	Ni-	.	.
.	.	.	16a/	.	16cc#\	.	.	.	.	.	.	.	.	.	.	.
8D/J	x 6	.	16dd/	.	16ff#\	.	8D\	-ſi	8f#\	-ſi	8b\	-ſi	8dd\	-ſi	.	.
*	*	*	*	*	*	*	*	*Xij	*	*Xij	*	*Xij	*	*Xij	*	*
.	.	.	16b/JJ	.	16dd\JJ	.	.	.	.	.	.	.	.	.	.	.
=4	=4	=4	=4	=4	=4	=4	=4	=4	=4	=4	=4	=4	=4	=4	=4	=4
8E\L	x 3_	.	8.g#/L	.	8.b\L	.	8E\	Do-	8.e\	Do-	8.g#\	Do-	8.b\	Do-	4.ryy	4.ryy
8D\	.	.	.	.	.	.	8D\	-mi-	.	.	.	.	.	.	.	.
.	.	.	32f#/LL	.	32a\LL	.	.	.	16e\	-mi-	16g#\	-mi-	16a\	-mi-	.	.
.	.	.	32g#/JJ	.	32b\JJ	.	.	.	.	.	.	.	.	.	.	.
8C#\J	x 6	.	8a/J	.	8cc#\J	.	8C#/	-nus	8e\	-nus	8a\	-nus	8cc#\	-nus	.	.
!	!	!	!LO:LB:g=original	!	!LO:LB:g=original	!	!LO:LB:g=original	!	!LO:LB:g=original	!	!LO:LB:g=original	!	!LO:LB:g=original	!	!	!
=5	=5	=5	=5	=5	=5	=5	=5	=5	=5	=5	=5	=5	=5	=5	=5	=5
!LO:TX:t=P:problem=mixed beam	!	!	!	!	!	!	!	!	!	!	!	!	!	!	!	!
.	.	.	.	.	8qa/	.	.	.	.	.	.	.	.	.	.	.
8AA/L	.	.	8cc#\L	.	8aa\L	.	8A\	ae-	8A\	ae-	8a\	ae-	8cc#\	ae-	4.ryy	4.ryy
8A\	.	.	8cc#\	.	16aa\L	.	8A\	-di-	8A\	-di-	8a\	-di-	8cc#\	-di-	.	.
.	.	.	.	.	16gg#\	.	.	.	.	.	.	.	.	.	.	.
8A\J	.	.	8cc#\J	.	16ff#\	.	8A\	-fi-	8A\	-fi-	8e\	-fi-	8cc#\	-fi-	.	.
.	.	.	.	.	16ee\JJ	.	.	.	.	.	.	.	.	.	.	.
=6	=6	=6	=6	=6	=6	=6	=6	=6	=6	=6	=6	=6	=6	=6	=6	=6
8A\L	6 4	.	8dd\L	.	(16ee#X\LL	.	8.A\	-ca-	8.A\	-ca-	8.f#\	-ca-	8.dd\	-ca-	4.ryy	4.ryy
.	.	.	.	.	16ff#\)	.	.	.	.	.	.	.	.	.	.	.
8A\	.	.	8dd\	.	(16ff#\	.	.	.	.	.	.	.	.	.	.	.
.	.	.	.	.	16aa\)	.	16A\	-ve-	16A\	-ve-	16f#\	-ve-	16dd\	-ve-	.	.
8A\J	7 2	.	8b\J	.	(16gg#\	.	8A\	-rit	8A\	-rit	8g#\	-rit	8b\	-rit	.	.
.	.	.	.	.	16bb\JJ)	.	.	.	.	.	.	.	.	.	.	.
=7	=7	=7	=7	=7	=7	=7	=7	=7	=7	=7	=7	=7	=7	=7	=7	=7
*tremolo	*	*	*	*	*	*	*	*	*	*	*	*	*	*	*	*
8A\L	x 3	.	8cc#\L	.	8aa\L	.	8A\	Do-	8A\	Do-	8a\	Do-	8cc#\	Do-	4.ryy	4.ryy
8A\	.	.	8cc#\	.	(16aa\L	.	8A\	-mum	8A\	-mum	8a\	-mum	8cc#\	-mum	.	.
.	.	.	.	.	16gg#\)	.	.	.	.	.	.	.	.	.	.	.
8A\J	.	.	8cc#\J	.	(16ff#\	.	8A\	in	8A\	in	8e\	in	8cc#\	in	.	.
.	.	.	.	.	16ee\JJ)	.	.	.	.	.	.	.	.	.	.	.
*Xtremolo	*	*	*	*	*	*	*	*	*	*	*	*	*	*	*	*
!LO:LB:g=original	!	!	!	!	!	!	!	!	!	!	!	!	!	!	!	!
=8	=8	=8	=8	=8	=8	=8	=8	=8	=8	=8	=8	=8	=8	=8	=8	=8
8A\L	6_ 4_	.	8dd\L	.	(16ee#X\LL	.	4A\	Va-	4A\	Va-	4f#\	Va-	4dd\	Va-	4.ryy	4.ryy
.	.	.	.	.	16ff#\)	.	.	.	.	.	.	.	.	.	.	.
8A\	.	.	8dd\	.	(16ff#\	.	.	.	.	.	.	.	.	.	.	.
.	.	.	.	.	16aa\)	.	.	.	.	.	.	.	.	.	.	.
8A\J	7 2	.	8b\J	.	(16gg#\	.	8A\	-num	8A\	-num	8g#\	-num	8b\	-num	.	.
.	.	.	.	.	16bb\JJ)	.	.	.	.	.	.	.	.	.	.	.
=9	=9	=9	=9	=9	=9	=9	=9	=9	=9	=9	=9	=9	=9	=9	=9	=9
*tremolo	*	*	*	*	*	*	*	*	*	*	*	*	*	*	*	*
8A\L	x 3	.	8cc#\L	.	8aa\L	.	4A\	la-	4A\	la-	4a\	la-	4cc#\	la-	4.ryy	4.ryy
8A\	.	.	8cc#\	.	16aa\L	.	.	.	.	.	.	.	.	.	.	.
.	.	.	.	.	16gg#\	.	.	.	.	.	.	.	.	.	.	.
8A\J	.	.	8cc#\J	.	16ff#\	.	8A\	-bo-	8e\	-bo-	8a\	-bo-	8cc#\	-bo-	.	.
.	.	.	.	.	16ee\JJ	.	.	.	.	.	.	.	.	.	.	.
*Xtremolo	*	*	*	*	*	*	*	*	*	*	*	*	*	*	*	*
!	!	!	!	!	!	!	!	!	!	!	!LO:LB:g=original	!	!	!	!	!
=10	=10	=10	=10	=10	=10	=10	=10	=10	=10	=10	=10	=10	=10	=10	=10	=10
8G#\L	6 5	.	8b\L	.	16ee\LL	.	8.G#\	-ra-	8.e\	-ra-	8.b\	-ra-	8.dd\	-ra-	4.ryy	4.ryy
.	.	.	.	.	16dd\	.	.	.	.	.	.	.	.	.	.	.
8G#\	.	.	8b\	.	16b\	.	.	.	.	.	.	.	.	.	.	.
.	.	.	.	.	16dd\	.	16G#\	-ve-	16e\	-ve-	16b\	-ve-	16dd\	-ve-	.	.
8A\J	.	.	8cc#\J	.	16cc#\	.	8A\	-runt	8e\	-runt	8a\	-runt	8cc#\	-runt	.	.
.	.	.	.	.	16aa\JJ	.	.	.	.	.	.	.	.	.	.	.
!	!	!	!	!	!LO:LB:g=original	!	!LO:LB:g=original	!	!LO:LB:g=original	!	!	!	!LO:LB:g=original	!	!	!
=11	=11	=11	=11	=11	=11	=11	=11	=11	=11	=11	=11	=11	=11	=11	=11	=11
8B\L	6_ 3_	.	8dd\L	.	16aa\LL	.	4B\	qvi	4e\	qvi	4g#\	qvi	4dd\	qvi	4.ryy	4.ryy
.	.	.	.	.	16gg#\	.	.	.	.	.	.	.	.	.	.	.
8B\	.	.	8dd\	.	16bb\	.	.	.	.	.	.	.	.	.	.	.
.	.	.	.	.	16gg#\	.	.	.	.	.	.	.	.	.	.	.
8c#\J	6 3	.	8cc#\J	.	16aa\	.	8c#\	ae-	8e\	ae-	8a\	ae-	8cc#\	ae-	.	.
.	.	.	.	.	16ee\JJ	.	.	.	.	.	.	.	.	.	.	.
=12	=12	=12	=12	=12	=12	=12	=12	=12	=12	=12	=12	=12	=12	=12	=12	=12
!	!	!	!LO:TUP:a:problem=klamra łukowa	!	!LO:TUP:a:problem=klamra łukowa	!	!	!	!	!	!	!	!	!	!	!
8d\L	x 6	.	24dd\LL	.	24ff#\LL	.	8d\	-di-	8f#\	-di-	8b\	-di-	8dd\	-di-	4.ryy	4.ryy
.	.	.	24cc#\	.	24ee\	.	.	.	.	.	.	.	.	.	.	.
.	.	.	24b\JJ	.	24dd\JJ	.	.	.	.	.	.	.	.	.	.	.
8e\	x 4	.	8a/L	.	8cc#\L	.	8e\	-fi-	8e\	-ci-	8a\	-fi-	8cc#\	-fi-	.	.
8E\J	x 3	.	8g#/J	.	8b\J	.	8E\	-cant	8d\	-cant	8g#\	-cant	8b\	-cant	.	.
!	!	!	!LO:LB:g=original	!	!	!	!	!	!	!	!	!	!	!	!	!
=13	=13	=13	=13	=13	=13	=13	=13	=13	=13	=13	=13	=13	=13	=13	=13	=13
!LO:TX:t=P:problem=mixed beam	!	!	!	!	!	!	!	!	!	!	!	!	!	!	!	!
8A\L	.	.	8a/L	.	8cc#/L	.	8A\	e-	8e\	e-	8a\	e-	8cc#\	e-	4.ryy	4.ryy
8AA/J	.	.	8c#/J	.	(32a/LL	.	8A\	-am	8e\	-am	8a\	-am	8cc#\	-am	.	.
.	.	.	.	.	32g#/	.	.	.	.	.	.	.	.	.	.	.
.	.	.	.	.	32a/	.	.	.	.	.	.	.	.	.	.	.
.	.	.	.	.	32b/JJJ)	.	.	.	.	.	.	.	.	.	.	.
8r	.	.	(32a/LLL	.	(32cc#\LLL	.	8r	.	8r	.	8r	.	8r	.	.	.
.	.	.	32g#/	.	32b\	.	.	.	.	.	.	.	.	.	.	.
.	.	.	32a/	.	32cc#\	.	.	.	.	.	.	.	.	.	.	.
.	.	.	32b/JJJ)	.	32dd\JJJ)	.	.	.	.	.	.	.	.	.	.	.
=14	=14	=14	=14	=14	=14	=14	=14	=14	=14	=14	=14	=14	=14	=14	=14	=14
8A\	.	.	8cc#\	.	8ee\	.	8r	.	8r	.	8r	.	8r	.	4.ryy	4.ryy
8r	.	.	8r	.	8r	.	8A\	Ni-	8e\	Ni-	8cc#\	Ni-	8ee\	Ni-	.	.
.	.	.	8qb/	.	8qdd/	.	.	.	.	.	.	.	.	.	.	.
8r	.	.	16a/LL	.	16cc#\LL	.	8A\	-ſi	8e\	-ſi	8a\	-ſi	8cc#\	-ſi	.	.
.	.	.	32g#/L	.	32b\L	.	.	.	.	.	.	.	.	.	.	.
.	.	.	32a/JJJ	.	32cc#\JJJ	.	.	.	.	.	.	.	.	.	.	.
!	!	!	!	!	!	!	!	!	!	!	!LO:LB:g=original	!	!	!	!	!
=15	=15	=15	=15	=15	=15	=15	=15	=15	=15	=15	=15	=15	=15	=15	=15	=15
8E\	.	.	8b\	.	8dd\	.	8r	.	8r	.	8r	.	8r	.	4.ryy	4.ryy
*	*	*	*	*	*	*	*	*ij	*	*ij	*	*	*	*ij	*	*
8r	.	.	8r	.	8r	.	8E\	Ni-	8e\	Ni-	8b\	Ni-	8dd\	Ni-	.	.
.	.	.	8qa/	.	8qcc#/	.	.	.	.	.	.	.	.	.	.	.
8r	.	.	16g#/LL	.	16b\LL	.	8E\	-ſi	8e\	-ſi	8g#\	-ſi	8b\	-ſi	.	.
.	.	.	32f#/L	.	32a\L	.	.	.	.	.	.	.	.	.	.	.
.	.	.	32g#/JJJ	.	32b\JJJ	.	.	.	.	.	.	.	.	.	.	.
!	!	!	!	!	!LO:LB:g=original	!	!	!	!	!	!	!	!	!	!	!
=16	=16	=16	=16	=16	=16	=16	=16	=16	=16	=16	=16	=16	=16	=16	=16	=16
!LO:TX:t=P:problem=mixed beam	!	!	!	!	!	!	!	!	!	!	!	!	!	!	!	!
8A\L	.	.	8a/L	.	8cc#\L	.	8r	.	8r	.	8r	.	8r	.	4.ryy	4.ryy
*	*	*	*	*	*	*	*	*	*	*	*	*ij	*	*	*	*
8AA/	.	.	16cc#/L	.	16ee\L	.	8A\	Ni-	8e\	Ni-	8a\	Ni-	8cc#\	Ni-	.	.
.	.	.	16a/	.	16cc#\	.	.	.	.	.	.	.	.	.	.	.
8D/J	x 6	.	16dd/	.	16ff#\	.	8D\	-ſi	8f#\	-ſi	8b\	-ſi	8dd\	-ſi	.	.
*	*	*	*	*	*	*	*	*Xij	*	*Xij	*	*Xij	*	*Xij	*	*
.	.	.	16b/JJ	.	16dd\JJ	.	.	.	.	.	.	.	.	.	.	.
!	!	!	!	!	!	!	!LO:LB:g=original	!	!LO:LB:g=original	!	!	!	!LO:LB:g=original	!	!	!
=17	=17	=17	=17	=17	=17	=17	=17-	=17	=17	=17	=17	=17	=17	=17	=17	=17
8E\L	x 3_	.	8.g#/L	.	8.b\L	.	8E\	Do-	8.e\	Do-	8.g#\	Do-	8.b\	Do-	4.ryy	4.ryy
8D\	.	.	.	.	.	.	8D\	-mi-	.	.	.	.	.	.	.	.
.	.	.	32f#/LL	.	32a\LL	.	.	.	16e\	-mi-	16g#\	-mi-	16b\	-mi-	.	.
.	.	.	32g#/JJ	.	32b\JJ	.	.	.	.	.	.	.	.	.	.	.
8C#\J	x 6	.	8a/J	.	8cc#\J	.	8C#/	-nus	8e\	-nus	8a\	-nus	8cc#\	-nus	.	.
!LO:LB:g=original	!	!	!	!	!	!	!	!	!	!	!	!	!	!	!	!
=18	=18	=18	=18	=18	=18	=18	=18	=18	=18	=18	=18	=18	=18	=18	=18	=18
!LO:TX:t=P:problem=mixed beam	!	!	!	!	!	!	!	!	!	!	!	!	!	!	!	!
.	.	.	.	.	8qa/	.	.	.	.	.	.	.	.	.	.	.
8AA/L	.	.	8cc#\L	.	8aa\L	.	4A\	Cuſ-	4e\	Cuſ-	4a\	Cu-	4cc#\	Cu-	4.ryy	4.ryy
8A\	.	.	8cc#\	.	16aa\L	.	.	.	.	.	.	.	.	.	.	.
.	.	.	.	.	16gg#\	.	.	.	.	.	.	.	.	.	.	.
8A\J	.	.	8cc#\J	.	16ff#\	.	8A\	-to-	8A\	-to-	8e\	-ſto-	8cc#\	-ſto-	.	.
.	.	.	.	.	16ee\JJ	.	.	.	.	.	.	.	.	.	.	.
!	!	!	!LO:LB:g=original	!	!	!	!	!	!	!	!	!	!	!	!	!
=19	=19	=19	=19	=19	=19	=19	=19	=19	=19	=19	=19	=19	=19	=19	=19	=19
8A\L	6_ 4_	.	8dd\L	.	(16ee#X\LL	.	8.A\	-di-	8.A\	-di-	8.f#\	-di-	8.dd\	-di-	4.ryy	4.ryy
.	.	.	.	.	16ff#\)	.	.	.	.	.	.	.	.	.	.	.
8A\	.	.	8dd\	.	(16ff#\	.	.	.	.	.	.	.	.	.	.	.
.	.	.	.	.	16aa\)	.	16A\	-e-	16A\	-e-	16f#\	-e-	16dd\	-e-	.	.
8A\J	7 2	.	8b\J	.	(16gg#\	.	8A\	-rit	8A\	-rit	8g#\	-rit	8b\	-rit	.	.
.	.	.	.	.	16bb\JJ)	.	.	.	.	.	.	.	.	.	.	.
!	!	!	!	!	!	!	!	!	!	!	!LO:LB:g=original	!	!	!	!	!
=20	=20	=20	=20	=20	=20	=20	=20	=20	=20	=20	=20	=20	=20	=20	=20	=20
*tremolo	*	*	*	*	*	*	*	*	*	*	*	*	*	*	*	*
8A\L	x 3	.	8cc#\L	.	8aa\L	.	4A\	Ci-	4A\	Ci-	4a\	Ci-	4cc#\	Ci-	4.ryy	4.ryy
8A\	.	.	8cc#\	.	16aa\L	.	.	.	.	.	.	.	.	.	.	.
.	.	.	.	.	16gg#\	.	.	.	.	.	.	.	.	.	.	.
8A\J	.	.	8cc#\J	.	16ff#\	.	8A\	-vi-	8A\	-vi-	8e\	-vi-	8cc#\	-vi-	.	.
.	.	.	.	.	16een\JJ	.	.	.	.	.	.	.	.	.	.	.
*Xtremolo	*	*	*	*	*	*	*	*	*	*	*	*	*	*	*	*
=21	=21	=21	=21	=21	=21	=21	=21	=21	=21	=21	=21	=21	=21	=21	=21	=21
8A\L	6_ 4_	.	8dd\L	.	(16ee#X\LL	.	4.A\	-ta-	4.A\	-ta-	(4f#\	-ta-	(4dd\	-ta-	4.ryy	4.ryy
.	.	.	.	.	16ff#\)	.	.	.	.	.	.	.	.	.	.	.
8A\	.	.	8dd\	.	(16ff#\	.	.	.	.	.	.	.	.	.	.	.
.	.	.	.	.	16aa\)	.	.	.	.	.	.	.	.	.	.	.
8A\J	7 2	.	8b\J	.	(16gg#\	.	.	.	.	.	8g#\)	.	8b\)	.	.	.
.	.	.	.	.	16bb\JJ)	.	.	.	.	.	.	.	.	.	.	.
!	!	!	!	!	!LO:PB:g=original	!	!	!	!	!	!	!	!	!	!	!
=22	=22	=22	=22	=22	=22	=22	=22	=22	=22	=22	=22	=22	=22	=22	=22	=22
*tremolo	*	*	*	*	*	*	*	*	*	*	*	*	*	*	*	*
8A\L	x 3	.	8cc#\L	.	8aa\L	.	8A\	-tem	8A\	-tem	8a\	-tem	8cc#\	-tem	4.ryy	4.ryy
8A\	.	.	8cc#\	.	16aa\L	.	8A\	fru-	8e\	fru-	8a\	fru-	8cc#\	fru-	.	.
.	.	.	.	.	16gg#\	.	.	.	.	.	.	.	.	.	.	.
8A\J	.	.	8cc#\J	.	16ff#\	.	8A\	-ſtra	8e\	-ſtra	8a\	-ſtra	8cc#\	-ſtra	.	.
.	.	.	.	.	16ee\JJ	.	.	.	.	.	.	.	.	.	.	.
*Xtremolo	*	*	*	*	*	*	*	*	*	*	*	*	*	*	*	*
!	!	!	!	!	!	!	!LO:LB:g=original	!	!LO:LB:g=original	!	!	!	!LO:LB:g=original	!	!	!
=23	=23	=23	=23	=23	=23	=23	=23	=23	=23	=23	=23	=23	=23	=23	=23	=23
8G#\L	6 5	.	8b\L	.	(16ee\LL	.	8.G#\	Vi-	8.e\	Vi-	8.b\	Vi-	8.dd\	Vi-	4.ryy	4.ryy
.	.	.	.	.	16dd\)	.	.	.	.	.	.	.	.	.	.	.
8G#\	.	.	8b\	.	(16b\	.	.	.	.	.	.	.	.	.	.	.
.	.	.	.	.	16dd\)	.	16G#\	-gi-	16e\	-gi-	16b\	-gi-	16dd\	-gi-	.	.
8A\J	.	.	8cc#\J	.	(16cc#\	.	8A\	-lat	8e\	-lat	8a\	-lat	8cc#\	-lat	.	.
.	.	.	.	.	16aa\JJ)	.	.	.	.	.	.	.	.	.	.	.
=24	=24	=24	=24	=24	=24	=24	=24	=24	=24	=24	=24	=24	=24	=24	=24	=24
!	!	!	!	!	!	!	!	!	!LO:SIC:v:s=4d\	!	!	!	!	!	!	!
8B\L	6 3	.	8dd\L	.	(16aa\LL	.	4B\	qvi	4e\	qvi	4f#\	qvi	4dd\	qvi	4.ryy	4.ryy
.	.	.	.	.	16gg#\)	.	.	.	.	.	.	.	.	.	.	.
8B\	.	.	8dd\	.	(16bb\	.	.	.	.	.	.	.	.	.	.	.
.	.	.	.	.	16gg#\)	.	.	.	.	.	.	.	.	.	.	.
8c#\J	6 3	.	8cc#\J	.	(16aa\	.	8c#\	Cuſ-	8e\	Cuſ-	8a\	Cuſ-	8cc#\	Cuſ-	.	.
.	.	.	.	.	16ee\JJ)	.	.	.	.	.	.	.	.	.	.	.
=25	=25	=25	=25	=25	=25	=25	=25	=25	=25	=25	=25	=25	=25	=25	=25	=25
8d\L	x 6_	.	8b\L	.	16ee\LL	.	4d\	-to-	4f#\	-to-	4b\	-to-	4dd\	-to-	4.ryy	4.ryy
.	.	.	.	.	16dd\	.	.	.	.	.	.	.	.	.	.	.
8d\	.	.	16dd\L	.	16bb\	.	.	.	.	.	.	.	.	.	.	.
.	.	.	16b\	.	16dd\	.	.	.	.	.	.	.	.	.	.	.
8d#X\J	x 5	.	16a\	.	16cc#\	.	8d#X\	-dit	8f#\	-dit	8a\	-dit	8cc#\	-dit	.	.
.	.	.	16cc#\JJ	.	16aa\JJ	.	.	.	.	.	.	.	.	.	.	.
!	!	!	!	!	!	!	!	!	!	!	!LO:LB:g=original	!	!	!	!	!
=26	=26	=26	=26	=26	=26	=26	=26	=26	=26	=26	=26	=26	=26	=26	=26	=26
8e\L	x 7	.	8a/L	.	8cc#\L	.	8e\	e-	8e\	e-	8a\	e-	8cc#\	e-	4.ryy	4.ryy
8E\J	x 3	.	8g#/J	.	8b\J	.	8E\	-am	8e\	-am	8g#\	-am	8b\	-am	.	.
8r	.	.	(32e/LLL	.	(32g#/LLL	.	8r	.	8r	.	8r	.	8r	.	.	.
.	.	.	32d#X/	.	32f#/	.	.	.	.	.	.	.	.	.	.	.
.	.	.	32e/	.	32g#/	.	.	.	.	.	.	.	.	.	.	.
.	.	.	32f#/JJJ)	.	32a/JJJ)	.	.	.	.	.	.	.	.	.	.	.
!	!	!	!LO:LB:g=original	!	!LO:LB:g=original	!	!	!	!	!	!	!	!	!	!	!
=27	=27	=27	=27	=27	=27	=27	=27	=27	=27	=27	=27	=27	=27	=27	=27	=27
8E\L	x 3_	.	4g#/	.	4b\	.	8E\	Va-	8e\	Va-	8g#\	Va-	8b\	Va-	4.ryy	4.ryy
8E\	.	.	.	.	.	.	8E\	-num	8e\	-num	8g#\	-num	8b\	-num	.	.
!	!	!	!	!	!LO:TUP:a:problem=klamra łukowa	!	!	!	!	!	!	!	!	!	!	!
8E\J	6 4	.	8a/	.	24ee\LL	.	8E\	eſt	8e\	eſt	8a\	eſt	8cc#\	eſt	.	.
.	.	.	.	.	24dd#X\	.	.	.	.	.	.	.	.	.	.	.
.	.	.	.	.	24cc#\JJ	.	.	.	.	.	.	.	.	.	.	.
!LO:LB:g=original	!	!	!	!	!	!	!	!	!	!	!	!	!	!	!	!
=28	=28	=28	=28	=28	=28	=28	=28	=28	=28	=28	=28	=28	=28	=28	=28	=28
!	!	!	!	!	!LO:TX:a:t=t	!	!	!	!	!	!	!	!	!	!	!
8E\L	x 4	.	8.a/L	.	8.cc#\L	.	4E\	Vo-	4e\	Vo-	4a\	Vo-	4cc#\	Vo-	4.ryy	4.ryy
8E\	.	.	.	.	.	.	.	.	.	.	.	.	.	.	.	.
.	.	.	32g#/LL	.	32b\LL	.	.	.	.	.	.	.	.	.	.	.
.	.	.	32a/JJ	.	32cc#\JJ	.	.	.	.	.	.	.	.	.	.	.
8E\J	x 3	.	8g#/J	.	8b\J	.	8E\	-bis	8e\	-bis	8g#\	-bis	8b\	-bis	.	.
!	!	!	!	!	!	!	!LO:LB:g=original	!	!LO:LB:g=original	!	!	!	!LO:LB:g=original	!	!	!
=29	=29	=29	=29	=29	=29	=29	=29	=29	=29	=29	=29	=29	=29	=29	=29	=29
*tremolo	*	*	*	*	*	*	*	*	*	*	*	*	*	*	*	*
!	!	!	!	!	!	!	!	!	!LO:SIC:v:s=4d#\	!	!	!	!	!	!	!
8BB/L	x #	.	8f#/L	.	16b\LL	.	4B\	an-	4d\	an-	4f#\	an-	4dd#\	an-	4.ryy	4.ryy
.	.	.	.	.	16a\	.	.	.	.	.	.	.	.	.	.	.
8BB/	.	.	8f#/	.	(16ff#\	.	.	.	.	.	.	.	.	.	.	.
.	.	.	.	.	16dd#X\)	.	.	.	.	.	.	.	.	.	.	.
8BB/J	.	.	8f#/J	.	(16b\	.	8B\	-te	8B\	-te	8f#\	-te	8dd#\	-te	.	.
.	.	.	.	.	16a\JJ)	.	.	.	.	.	.	.	.	.	.	.
=30	=30	=30	=30	=30	=30	=30	=30	=30	=30	=30	=30	=30	=30	=30	=30	=30
8E\L	.	.	8e/L	.	(16a/LL	.	4E\	lu-	4B\	lu-	4g#\	lu-	4ee\	lu-	4.ryy	4.ryy
.	.	.	.	.	16g#/JJ)	.	.	.	.	.	.	.	.	.	.	.
8E\	.	.	8g#/	.	(16b\LL	.	.	.	.	.	.	.	.	.	.	.
.	.	.	.	.	16ee\)	.	.	.	.	.	.	.	.	.	.	.
8E\J	.	.	8g#/J	.	(16gg#\	.	8E\	-cem	8B\	-cem	8g#\	-cem	8ee\	-cem	.	.
.	.	.	.	.	16ee\JJ)	.	.	.	.	.	.	.	.	.	.	.
*Xtremolo	*	*	*	*	*	*	*	*	*	*	*	*	*	*	*	*
!	!	!	!	!	!	!	!	!	!	!	!LO:LB:g=original	!	!	!	!	!
=31	=31	=31	=31	=31	=31	=31	=31	=31	=31	=31	=31	=31	=31	=31	=31	=31
*	*	*	*	*	*	*	*	*ij	*	*ij	*	*	*	*ij	*	*
!LO:TX:t=P:problem=mixed beam	!	!	!	!	!LO:TX:t=t	!	!	!	!	!	!	!	!	!	!	!
8B\L	6 4	.	(8.g#/L	.	(8.ee\L	.	4B\	an-	4B\	an-	8.g#\L	an-	8.ee\L	lu-	4.ryy	4.ryy
8BB/	.	.	.	.	.	.	.	.	.	.	.	.	.	.	.	.
!	!	!	!	!	!	!	!	!	!	!	!	!	!LO:SIC:v:s=32dd#\LL	!	!	!
.	.	.	32f#/LL	.	32dd#X\LL	.	.	.	.	.	32f#\LL	.	32dd\LL	.	.	.
.	.	.	32g#/JJ	.	32ee\JJ)	.	.	.	.	.	32g#\JJJ	.	32ee\JJJ	.	.	.
8B\J	5 #	.	8a/J)	.	8ff#|\J	.	8B\	-te	8B\	-te	8a\	-te	8ff#\	-cem	.	.
=32	=32	=32	=32	=32	=32	=32	=32	=32	=32	=32	=32	=32	=32	=32	=32	=32
!	!	!	!	!	!LO:TX:t=t	!	!	!	!	!	!	!	!	!	!	!
8e\L	x 4	.	8.a/L	.	(8.ff#\L	.	4E\	lu-	4B\	lu-	8.a\L	lu-	8.ff#\L	lu-	4.ryy	4.ryy
8e\	.	.	.	.	.	.	.	.	.	.	.	.	.	.	.	.
.	.	.	(32g#/LL	.	32ee\LL	.	.	.	.	.	32g#\LL	.	32ee\LL	.	.	.
.	.	.	32a/JJ	.	32ff#\JJ)	.	.	.	.	.	32a\JJJ	.	32ff#\JJJ	.	.	.
8E\J	x 3	.	8b/J)	.	8gg#\J	.	8E\	-cem	8B\	-cem	8b\	-cem	8gg#\	-cem	.	.
*	*	*	*	*	*	*	*	*Xij	*	*Xij	*	*	*	*Xij	*	*
=33	=33	=33	=33	=33	=33	=33	=33	=33	=33	=33	=33	=33	=33	=33	=33	=33
!LO:TX:t=P:problem=mixed beam	!	!	!LO:TUP:b:problem=klamra łukowa	!	!LO:TUP:a:problem=klamra łukowa	!	!	!	!	!	!	!	!	!	!	!
8A\L	x 6	.	24cc#/LL	.	24aa\LL	.	8A\L	Sur-	8c#\L	Sur-	8a\L	Sur-	8ff#\L	Sur-	4.ryy	4.ryy
.	.	.	24b/	.	24gg#\	.	.	.	.	.	.	.	.	.	.	.
.	.	.	24a/JJ	.	24ff#\JJ	.	.	.	.	.	.	.	.	.	.	.
!	!	!	!	!	!LO:LB:g=original	!	!	!	!	!	!	!	!	!	!	!
8B\	x 4	.	8g#/L	.	8ee\L	.	8B\J	.	8B\J	.	8g#\J	.	8ee\J	.	.	.
8BB/J	x #	.	8f#/J	.	8dd#X\J	.	8BB/	-ge-	8B\	-ge-	8f#\	-ge-	8dd#X\	-ge-	.	.
!	!	!	!LO:LB:g=original	!	!	!	!	!	!	!	!	!	!	!	!	!
=34	=34	=34	=34	=34	=34	=34	=34	=34	=34	=34	=34	=34	=34	=34	=34	=34
8E|\L	.	.	8e/L	.	8ee\L	.	8E\	-re	8B\	-re	8g#\	-re	8ee\	-re	4.ryy	4.ryy
8E|\	.	.	(32e/LL	.	(32ee\LL	.	8E\	Sur-	8E/	Sur-	8e\	Sur-	8ee\	Sur-	.	.
.	.	.	32d#X/	.	32dd#X\	.	.	.	.	.	.	.	.	.	.	.
.	.	.	32e/	.	32ee\	.	.	.	.	.	.	.	.	.	.	.
.	.	.	32f#/JJJ)	.	32ff#\JJJ)	.	.	.	.	.	.	.	.	.	.	.
8G#|\J	.	.	(32g#/LLL	.	(32gg#\LLL	.	8G#\	-gi-	8G#/	-gi-	8g#\	-gi-	8gg#\	-gi-	.	.
.	.	.	32f#/	.	32ff#\	.	.	.	.	.	.	.	.	.	.	.
.	.	.	32g#/	.	32gg#\	.	.	.	.	.	.	.	.	.	.	.
.	.	.	32a/JJJ)	.	32aa\JJJ)	.	.	.	.	.	.	.	.	.	.	.
=35	=35	=35	=35	=35	=35	=35	=35	=35	=35	=35	=35	=35	=35	=35	=35	=35
!LO:TX:t=P:problem=mixed beam	!	!	!	!	!	!	!	!	!	!	!	!	!	!	!	!
8B|\L	.	.	(32b/LLL	.	(32bb\LLL	.	4B\	-te	4B\	-te	4b\	-te	4bb\	-te	4.ryy	4.ryy
.	.	.	32a/	.	32aa\	.	.	.	.	.	.	.	.	.	.	.
.	.	.	32b/	.	32bb\	.	.	.	.	.	.	.	.	.	.	.
.	.	.	32cc#/JJJ)	.	32ccc#\JJJ)	.	.	.	.	.	.	.	.	.	.	.
8BB|/J	.	.	16b/LL	.	16bb\LL	.	.	.	.	.	.	.	.	.	.	.
.	.	.	16f#|/	.	16ff#|\	.	.	.	.	.	.	.	.	.	.	.
!LO:TX:b:i:t=Verte	!	!	!	!	!	!	!	!	!	!	!	!	!	!	!	!
8r	.	.	16d#X|/	.	16dd#X|\	.	8r	.	8r	.	8r	.	8r	.	.	.
.	.	.	16f#|/JJ	.	16ff#|\JJ	.	.	.	.	.	.	.	.	.	.	.
!LO:PB:g=original	!	!	!	!	!	!	!LO:LB:g=original	!	!LO:LB:g=original	!	!LO:LB:g=original	!	!LO:PB:g=original	!	!	!
=36	=36	=36	=36	=36	=36	=36	=36	=36	=36	=36	=36	=36	=36	=36	=36	=36
8B|\L	.	.	8b|/L	.	8bb|\L	.	8B\	poſt	8B\	poſt	8b\	poſt	8bb\	poſt	4.ryy	4.ryy
8G#|\	.	.	8g#|/	.	8gg#|\	.	8G#\	qvam	8G#/	qvam	8g#\	qvam	8gg#\	qvam	.	.
8E|\J	.	.	8e|/J	.	8ee|\J	.	8E\	Se-	8E/	Se-	8e\	Se-	8ee\	Se-	.	.
=37	=37	=37	=37	=37	=37	=37	=37	=37	=37	=37	=37	=37	=37	=37	=37	=37
!LO:TX:t=P:problem=mixed beam	!	!	!	!	!	!	!	!	!	!	!	!	!	!	!	!
8B|\L	.	.	8b|/L	.	8bb|\L	.	16B\	-de-	16B\	-de-	16b\	-de-	16bb\	-de-	4.ryy	4.ryy
.	.	.	.	.	.	.	16B\	-ri-	16B\	-ri-	16b\	-ri-	16b\	-ri-	.	.
8BB|/J	.	.	(16b/L	.	(16b\L	.	8BB/	-tis	8B\	-tis	8B/	-tis	8b\	-tis	.	.
.	.	.	16ccn/	.	16ccn\	.	.	.	.	.	.	.	.	.	.	.
!	!	!	!	!	!	!	!	!	!	!	!LO:TX:b:i:t=Verte	!	!	!	!	!
8r	.	.	16b/	.	16b\	.	8r	.	8r	.	8r	.	8r	.	.	.
.	.	.	16a/JJ)	.	16a\JJ)	.	.	.	.	.	.	.	.	.	.	.
!	!	!	!	!	!	!	!	!	!	!	!LO:PB:g=original	!	!	!	!	!
=38	=38	=38	=38	=38	=38	=38	=38	=38	=38	=38	=38	=38	=38	=38	=38	=38
!LO:TX:t=P:problem=nieczytelne bc	!	!	!	!LO:DY:Bi:t=poco for	!	!LO:DY:a:Bi:t=poco for&colon;	!	!	!	!	!	!	!	!	!	!
8E\L	x n	.	(16gn/LL	f	16gn/LL	f	8B\	qvi	8B\	qvi	8b\	qvi	8b\	qvi	4.ryy	4.ryy
.	.	.	16b/)	.	16b/	.	.	.	.	.	.	.	.	.	.	.
8D#X\	7nr 3	.	(16a/	.	16a/	.	8cn\	man-	8cn\	man-	8ccn\	man-	8ccn\	man-	.	.
.	.	.	16f#/)	.	16f#/JJ	.	.	.	.	.	.	.	.	.	.	.
!	!	!	!	!	!LO:LB:g=original	!	!	!	!	!	!	!	!	!	!	!
8E\J	x n	.	(16b/	.	16b/LL	.	8B\	-du-	8B\	-du-	8b\	-du-	8b\	-du-	.	.
.	.	.	16g/JJ)	.	16g/JJ	.	.	.	.	.	.	.	.	.	.	.
!	!	!	!LO:LB:g=original	!	!	!	!	!	!	!	!	!	!	!	!	!
=39	=39	=39	=39	=39	=39	=39	=39	=39	=39	=39	=39	=39	=39	=39	=39	=39
8F#\L	x #	.	(16g#/LL	.	(16g#/LL	.	8A#X\	-ca-	8A#X\	-ca-	8a#X\	-ca-	8a#X\	-ca-	4.ryy	4.ryy
.	.	.	16f#/)	.	16f#/)	.	.	.	.	.	.	.	.	.	.	.
8D#X\J	x 6	.	16f#'/	.	16f#'/	.	8B\	-tis	8B\	-tis	8b\	-tis	8b\	-tis	.	.
.	.	.	16f#'/JJ	.	16f#'/JJ	.	.	.	.	.	.	.	.	.	.	.
8r	.	.	(16f#/LL	.	(16f#/LL	.	8r	.	8r	.	8r	.	8r	.	.	.
.	.	.	32e/L	.	32e/L)	.	.	.	.	.	.	.	.	.	.	.
.	.	.	32f#/JJJ)	.	32f#/JJJ	.	.	.	.	.	.	.	.	.	.	.
=40	=40	=40	=40	=40	=40	=40	=40	=40	=40	=40	=40	=40	=40	=40	=40	=40
*	*	*	*	*	*	*	*	*	*	*	*	*ij	*	*	*	*
8E\L	5 n	.	(16gn/LL	.	(16gn/LL	.	8B\	qvi	8B\	qvi	8b\	qvi	8b\	qvi	4.ryy	4.ryy
.	.	.	16b/)	.	16b/)	.	.	.	.	.	.	.	.	.	.	.
8D#X\	7nr 3	.	(16a/	.	(16a/	.	8cn\	man-	8cn\	man-	8ccn\	man-	8ccn\	man-	.	.
.	.	.	16f#/)	.	16f#/)	.	.	.	.	.	.	.	.	.	.	.
8E\J	5 n	.	(16b/	.	(16b/	.	8B\	-du-	8B\	-du-	8b\	-du-	8b\	-du-	.	.
.	.	.	16g/JJ)	.	16g/JJ)	.	.	.	.	.	.	.	.	.	.	.
!	!	!	!	!	!	!	!LO:LB:g=original	!	!LO:LB:g=original	!	!	!	!LO:LB:g=original	!	!	!
=41	=41	=41	=41	=41	=41	=41	=41	=41	=41	=41	=41	=41	=41	=41	=41	=41
8F#\L	x #	.	(16g#/LL	.	(16g#/LL	.	8A#X\	-ca-	8A#X\	-ca-	8a#X\	-ca-	8a#X\	-ca-	4.ryy	4.ryy
.	.	.	16f#/)	.	16f#/)	.	.	.	.	.	.	.	.	.	.	.
8D#X\J	x 6	.	16f#'/	.	16f#'/	.	8B\	-tis	8B\	-tis	8b\	-tis	8b\	-tis	.	.
*	*	*	*	*	*	*	*	*	*	*	*	*Xij	*	*	*	*
.	.	.	16f#'/JJ	.	16f#'/JJ	.	.	.	.	.	.	.	.	.	.	.
8r	.	.	(16f#/LL	.	(16f#/LL	.	8r	.	8r	.	8r	.	8r	.	.	.
.	.	.	32e/L)	.	32e/L)	.	.	.	.	.	.	.	.	.	.	.
.	.	.	32f#/JJJ	.	32f#/JJJ	.	.	.	.	.	.	.	.	.	.	.
=42	=42	=42	=42	=42	=42	=42	=42	=42	=42	=42	=42	=42	=42	=42	=42	=42
8E\L	x 5_	.	(16gn/LL	.	(16gn/LL	.	8B\	qvi	8B\	qvi	8b\	qvi	8b\	qvi	4.ryy	4.ryy
.	.	.	16b/)	.	16b/)	.	.	.	.	.	.	.	.	.	.	.
8F#\	.	.	(16a/	.	(16a/	.	8B\	man-	8B\	man-	8b\	man-	8b\	man-	.	.
.	.	.	16f#/)	.	16f#/)	.	.	.	.	.	.	.	.	.	.	.
8Gn\J	.	.	(16g/	.	(16g/	.	8B\	-du-	8B\	-du-	8b\	-du-	8b\	-du-	.	.
.	.	.	16e/JJ)	.	16e/JJ)	.	.	.	.	.	.	.	.	.	.	.
!	!	!	!	!	!LO:LB:g=original	!	!	!	!	!	!LO:LB:g=original	!	!	!	!	!
=43	=43	=43	=43	=43	=43	=43	=43	=43	=43	=43	=43	=43	=43	=43	=43	=43
4A\	x n	.	(16d#X/LL	.	(16d#X/LL	.	4cn\	-ca-	4cn\	-ca-	4ccn\	-ca-	4ccn\	-ca-	4.ryy	4.ryy
.	.	.	16e/)	.	16e/)	.	.	.	.	.	.	.	.	.	.	.
.	.	.	(16f#/	.	(16f#/	.	.	.	.	.	.	.	.	.	.	.
.	.	.	16e/)	.	16e/)	.	.	.	.	.	.	.	.	.	.	.
8Gn\	6 3	.	(16d#/	.	(16d#/	.	8B\	-tis	8B\	-tis	8b\	-tis	8b\	-tis	.	.
.	.	.	16e/JJ)	.	16e/JJ)	.	.	.	.	.	.	.	.	.	.	.
!LO:LB:g=original	!	!	!LO:LB:g=original	!	!	!	!	!	!	!	!	!	!	!	!	!
=44	=44	=44	=44	=44	=44	=44	=44	=44	=44	=44	=44	=44	=44	=44	=44	=44
8F#\L	3_ x	.	(16cn/LL	.	(16cn/LL	.	4A\	pa-	4A/	pa-	4a\	pa-	4a\	pa-	4.ryy	4.ryy
.	.	.	16e/)	.	16e/)	.	.	.	.	.	.	.	.	.	.	.
8BB\	x_ #	.	(16d#X/	.	(16d#X/	.	.	.	.	.	.	.	.	.	.	.
.	.	.	16f#/)	.	16f#/	.	.	.	.	.	.	.	.	.	.	.
8E\J	n x	.	(16e/	.	16e/	.	8Gn\	-nem	8Gn/	-nem	8gn\	-nem	8gn\	-nem	.	.
.	.	.	16B/JJ)	.	16B/JJ)	.	.	.	.	.	.	.	.	.	.	.
=45	=45	=45	=45	=45	=45	=45	=45	=45	=45	=45	=45	=45	=45	=45	=45	=45
!LO:TX:t=P:problem=mixed beam	!	!	!	!	!	!	!	!	!	!	!	!	!	!	!	!
8A\L	x 6	.	16cn/LL	.	16cn/LL	.	8A\	do-	8A/	do-	8a\	do-	8a\	do-	4.ryy	4.ryy
.	.	.	16f#/J	.	16f#/J	.	.	.	.	.	.	.	.	.	.	.
!	!	!	!	!	!	!	!	!	!	!	!	!	!LO:SIC:v:s=8gn/L	!	!	!
8B\	x 4	.	8e/	.	8e/	.	8Gn\L	-lo-	8Gn/L	-lo-	8gn\L	-lo-	8g#/L	-lo-	.	.
8BB/J	x #	.	8d#X/J	.	8d#X/J	.	8F#\J	.	8F#/J	.	8f#\J	.	8f#/J	.	.	.
=46	=46	=46	=46	=46	=46	=46	=46	=46	=46	=46	=46	=46	=46	=46	=46	=46
!LO:TX:a:i:t=Solo&colon;	!	!	!	!	!LO:TX:a:i:t=dol&colon;	!	!	!	!	!	!	!	!	!	!	!
8E\L	.	.	8e/	.	8e/	.	4E\	-ris	4E/	-ris	4e\	-ris.	4e/	-ris	4.ryy	4.ryy
8E\	.	.	16r	.	16r	.	.	.	.	.	.	.	.	.	.	.
!	!	!	!LO:TX:a:rj:i:t=dol&colon;	!	!	!	!	!	!	!	!	!	!	!	!	!
.	.	.	16B'/LL	.	16b|\LL	.	.	.	.	.	.	.	.	.	.	.
8G#X\J	.	.	16B'/	.	16b|\	.	8r	.	8r	.	8r	.	8r	.	.	.
.	.	.	16B'/JJ	.	16b|\JJ	.	.	.	.	.	.	.	.	.	.	.
!	!	!	!	!	!	!	!LO:LB:g=original	!	!	!	!	!	!LO:LB:g=original	!	!	!
=47	=47	=47	=47	=47	=47	=47	=47	=47	=47	=47	=47	=47	=47	=47	=47	=47
!	!	!	!	!	!	!	!	!	!	!	!	!	!LO:TX:a:t=P:42:problem=dopisane ołówkiem	!	!	!
!	!	!	!	!	!	!	!LO:N:vis=00	!	!LO:N:vis=00	!	!LO:N:vis=00	!	!LO:N:vis=00	!	!	!
4A\	x #	.	(16B/LL	.	(16b\LL	.	1.r	.	1.r	.	1.r	.	1.r	.	4.ryy	4.ryy
.	.	.	16c#X/J)	.	16cc#X\J)	.	.	.	.	.	.	.	.	.	.	.
.	.	.	(8.c#/	.	(8.cc#\	.	.	.	.	.	.	.	.	.	.	.
8F#\	x 6\	.	.	.	.	.	.	.	.	.	.	.	.	.	.	.
.	.	.	16d#X/Jk)	.	16dd#X\Jk)	.	.	.	.	.	.	.	.	.	.	.
!	!	!	!LO:PB:g=original	!	!LO:LB:g=original	!	!	!	!	!	!	!	!	!	!	!
=48	=48	=48	=48	=48	=48	=48	=48	=48	=48	=48	=48	=48	=48	=48	=48	=48
!	!	!	!	!	!LO:SIC:v:s=(16dd#\LL	!	!	!	!	!	!	!	!	!	!	!
4G#\	x 6	.	(16d#X/LL	.	(16dd\LL	.	.	.	.	.	.	.	.	.	4.ryy	4.ryy
.	.	.	16e/J)	.	16ee\J)	.	.	.	.	.	.	.	.	.	.	.
.	.	.	(8.e/	.	(8.ee\	.	.	.	.	.	.	.	.	.	.	.
8E\	x #	.	.	.	.	.	.	.	.	.	.	.	.	.	.	.
.	.	.	32f#/LL	.	32ff#\LL	.	.	.	.	.	.	.	.	.	.	.
.	.	.	32g#/JJJ)	.	32gg#\JJJ)	.	.	.	.	.	.	.	.	.	.	.
=49	=49	=49	=49	=49	=49	=49	=49	=49	=49	=49	=49	=49	=49	=49	=49	=49
4BB/	x #	.	(16g#/LL	.	(16gg#\LL	.	.	.	.	.	.	.	.	.	4.ryy	4.ryy
.	.	.	16f#/J)	.	16ff#\J)	.	.	.	.	.	.	.	.	.	.	.
.	.	.	(8.b/	.	(8.bb\	.	.	.	.	.	.	.	.	.	.	.
8D#X\	6 5	.	.	.	.	.	.	.	.	.	.	.	.	.	.	.
.	.	.	16a/Jk)	.	16aa\Jk)	.	.	.	.	.	.	.	.	.	.	.
=50	=50	=50	=50	=50	=50	=50	=50	=50	=50	=50	=50	=50	=50	=50	=50	=50
4E\	.	.	(16g#/LL	.	16gg#\LL	.	.	.	.	.	.	.	.	.	4.ryy	4.ryy
.	.	.	16b/)	.	16bb\	.	.	.	.	.	.	.	.	.	.	.
.	.	.	(16a/	.	16aa\	.	.	.	.	.	.	.	.	.	.	.
.	.	.	16g#/)	.	16gg#\	.	.	.	.	.	.	.	.	.	.	.
8G#\	x 6	.	(16f#/	.	16ff#\	.	.	.	.	.	.	.	.	.	.	.
.	.	.	16e/JJ)	.	16ee\JJ	.	.	.	.	.	.	.	.	.	.	.
=51	=51	=51	=51	=51	=51	=51	=51	=51	=51	=51	=51	=51	=51	=51	=51	=51
!LO:TX:t=P:problem=mixed beam	!	!	!	!	!	!	!LO:N:vis=00	!	!	!	!	!	!LO:N:vis=00	!	!	!
8A\L	x 6	.	8a/L	.	16aa\LL	.	1.r	.	4.r	.	4.r	.	1.r	.	4.ryy	4.ryy
.	.	.	.	.	16ff#\J	.	.	.	.	.	.	.	.	.	.	.
8B\	x 4	.	8g#/	.	8ee\	.	.	.	.	.	.	.	.	.	.	.
8BB/J	x #	.	8f#/J	.	8dd#X\J	.	.	.	.	.	.	.	.	.	.	.
!	!	!	!	!	!	!	!	!	!LO:PB:g=original	!	!	!	!	!	!	!
=52	=52	=52	=52	=52	=52	=52	=52	=52	=52	=52	=52	=52	=52	=52	=52	=52
!	!	!	!	!LO:DY:a:Bi:t=p&colon;	!	!LO:DY:a:Bi:t=p&colon;	!	!	!LO:TX:a:i:t=Solo	!	!LO:TX:a:rj:i:t=Solo&colon;	!	!	!	!	!
8E\L	.	.	8g#/L	p	8ee\L	p	.	.	4.g#\	Cum	4.b\	Cum	.	.	4.ryy	4.ryy
8E\	.	.	8g#/	.	8ee\	.	.	.	.	.	.	.	.	.	.	.
8E\J	.	.	8g#/J	.	8ee\J	.	.	.	.	.	.	.	.	.	.	.
!LO:LB:g=original	!	!	!	!	!	!	!	!	!	!	!	!	!	!	!	!
=53	=53	=53	=53	=53	=53	=53	=53	=53	=53	=53	=53	=53	=53	=53	=53	=53
8r	.	.	8r	.	8r	.	.	.	4f#\	de-	4a\	de-	.	.	4.ryy	4.ryy
8B\L	x #	.	8f#/L	.	8dd#X\L	.	.	.	.	.	.	.	.	.	.	.
8B\J	.	.	8f#/J	.	8dd#\J	.	.	.	16g#\LL	-de-	16b\LL	-de-	.	.	.	.
.	.	.	.	.	.	.	.	.	16f#\JJ	.	16a\JJ	.	.	.	.	.
!	!	!	!LO:LB:g=original	!	!	!	!	!	!	!	!	!	!	!	!	!
=54	=54	=54	=54	=54	=54	=54	=54	=54	=54	=54	=54	=54	=54	=54	=54	=54
8r	.	.	8r	.	8r	.	.	.	4e\	-rit	4g#\	-rit	.	.	4.ryy	4.ryy
8E\L	.	.	8g#/L	.	8ee\L	.	.	.	.	.	.	.	.	.	.	.
*	*	*	*	*	*	*	*	*	*	*ij	*	*	*	*	*	*
8E\J	.	.	8g#/J	.	8ee\J	.	.	.	8g#\	Cum	8b\	Cum	.	.	.	.
!	!	!	!	!	!LO:LB:g=original	!	!	!	!	!	!LO:LB:g=original	!	!	!	!	!
=55	=55	=55	=55	=55	=55	=55	=55	=55	=55	=55	=55	=55	=55	=55	=55	=55
!	!	!	!	!	!	!	!LO:N:vis=00	!	!	!	!	!	!LO:N:vis=00	!	!	!
8r	.	.	8r	.	8r	.	1.r	.	4f#\	de-	4a\	de-	1.r	.	4.ryy	4.ryy
8B\L	x #	.	8f#/L	.	8dd#X\L	.	.	.	.	.	.	.	.	.	.	.
8B\J	.	.	8f#/J	.	8dd#\J	.	.	.	16g#\LL	-de-	16b\LL	-de-	.	.	.	.
.	.	.	.	.	.	.	.	.	16f#\JJ	.	16a\JJ	.	.	.	.	.
=56	=56	=56	=56	=56	=56	=56	=56	=56	=56	=56	=56	=56	=56	=56	=56	=56
8r	.	.	8r	.	8r	.	.	.	4e\	-rit	4g#\	-rit	.	.	4.ryy	4.ryy
*	*	*	*	*	*	*	*	*	*	*Xij	*	*	*	*	*	*
8E\L	.	.	8g#/L	.	8ee\L	.	.	.	.	.	.	.	.	.	.	.
8E\J	.	.	8g#/J	.	8ee\J	.	.	.	8g#\	di-	8b\	di-	.	.	.	.
=57	=57	=57	=57	=57	=57	=57	=57	=57	=57	=57	=57	=57	=57	=57	=57	=57
8r	.	.	8r	.	8r	.	.	.	4.a\	-le-	4.cc#\	-lec-	.	.	4.ryy	4.ryy
8E\L	6 4	.	8a/L	.	8cc#\L	.	.	.	.	.	.	.	.	.	.	.
8E\J	.	.	8a/J	.	8cc#\J	.	.	.	.	.	.	.	.	.	.	.
=58	=58	=58	=58	=58	=58	=58	=58	=58	=58	=58	=58	=58	=58	=58	=58	=58
8r	.	.	8r	.	8r	.	.	.	4.g#\	-ctis	4.b\	-tis	.	.	4.ryy	4.ryy
8E\L	5 3	.	8g#/L	.	8b\L	.	.	.	.	.	.	.	.	.	.	.
8E\J	.	.	8g#/J	.	8b\J	.	.	.	.	.	.	.	.	.	.	.
=59	=59	=59	=59	=59	=59	=59	=59	=59	=59	=59	=59	=59	=59	=59	=59	=59
!	!	!	!	!	!	!	!LO:N:vis=00	!	!	!	!	!	!LO:N:vis=00	!	!	!
8r	.	.	8r	.	8r	.	1.r	.	4f#\	Su-	4a\	Su-	1.r	.	4.ryy	4.ryy
8D#X\L	6 5	.	8f#/L	.	8a/L	.	.	.	.	.	.	.	.	.	.	.
8E\J	.	.	8e/J	.	8g#/J	.	.	.	8e\	-is	8g#\	-is	.	.	.	.
!	!	!	!	!	!	!	!	!	!LO:LB:g=original	!	!	!	!	!	!	!
=60	=60	=60	=60	=60	=60	=60	=60	=60	=60	=60	=60	=60	=60	=60	=60	=60
8r	.	.	8r	.	8r	.	.	.	16e\LL	Som-	16g#\LL	Som-	.	.	4.ryy	4.ryy
.	.	.	.	.	.	.	.	.	16d#X\JJ	.	16f#\JJ	.	.	.	.	.
!LO:TX:t=P:problem=mixed beam	!	!	!	!	!	!	!	!	!	!	!	!	!	!	!	!
8B\L	x #	.	8d#X/L	.	8f#/L	.	.	.	8d#\	-num	8f#\	-num	.	.	.	.
8BB/J	.	.	8d#/J	.	8f#/J	.	.	.	8r	.	8r	.	.	.	.	.
=61	=61	=61	=61	=61	=61	=61	=61	=61	=61	=61	=61	=61	=61	=61	=61	=61
8r	.	.	8r	.	8r	.	.	.	4.d#X\	Ec-	4.f#\	Ec-	.	.	4.ryy	4.ryy
8B\L	x #_	.	8f#/L	.	8dd#X\L	.	.	.	.	.	.	.	.	.	.	.
8B\J	.	.	8f#/J	.	8dd#\J	.	.	.	.	.	.	.	.	.	.	.
!LO:LB:g=original	!	!	!LO:LB:g=original	!	!	!	!	!	!	!	!	!	!	!	!	!
=62	=62	=62	=62	=62	=62	=62	=62	=62	=62	=62	=62	=62	=62	=62	=62	=62
!	!	!	!	!	!	!	!	!	!LO:SIC:v:s=4d#\	!	!	!	!	!	!	!
8r	.	.	8r	.	8r	.	.	.	4d\	-ce	4f#\	-ce	.	.	4.ryy	4.ryy
!	!	!	!	!	!LO:SIC:v:s=8dd#\L	!	!	!	!	!	!	!	!	!	!	!
8A\L	.	.	8b\L	.	8dd\L	.	.	.	.	.	.	.	.	.	.	.
!	!	!	!	!	!LO:SIC:v:s=8dd#\J	!	!	!	!	!	!	!	!	!	!	!
8A\J	.	.	8b\J	.	8dd\J	.	.	.	16c#\LL	hae-	16e\LL	hae-	.	.	.	.
!	!	!	!	!	!	!	!	!	!LO:SIC:v:s=16d#\JJ	!	!	!	!	!	!	!
.	.	.	.	.	.	.	.	.	16d\JJ	.	16f#\JJ	.	.	.	.	.
!	!	!	!	!	!LO:LB:g=original	!	!	!	!	!	!LO:LB:g=original	!	!	!	!	!
=63	=63	=63	=63	=63	=63	=63	=63	=63	=63	=63	=63	=63	=63	=63	=63	=63
!	!	!	!	!	!	!	!LO:N:vis=00	!	!	!	!	!	!LO:N:vis=00	!	!	!
8r	.	.	8r	.	8r	.	1.r	.	8.e\	-re-	8.g#\	-re-	1.r	.	4.ryy	4.ryy
8G#\L	x 6	.	8b\L	.	8ee\L	.	.	.	.	.	.	.	.	.	.	.
.	.	.	.	.	.	.	.	.	16e\	-di-	16g#\	-di-	.	.	.	.
8G#\J	.	.	8b\J	.	8ee\J	.	.	.	8e\	-tas	8g#\	-tas	.	.	.	.
=64	=64	=64	=64	=64	=64	=64	=64	=64	=64	=64	=64	=64	=64	=64	=64	=64
8r	.	.	8r	.	8r	.	.	.	4e\	Do-	4g#\	Do-	.	.	4.ryy	4.ryy
8E\L	.	.	8g#/L	.	8ee\L	.	.	.	.	.	.	.	.	.	.	.
8E\J	.	.	8g#/J	.	8ee\J	.	.	.	16f#\LL	-mi-	16a\LL	-mi-	.	.	.	.
.	.	.	.	.	.	.	.	.	16e\JJ	.	16g#\JJ	.	.	.	.	.
=65	=65	=65	=65	=65	=65	=65	=65	=65	=65	=65	=65	=65	=65	=65	=65	=65
8r	.	.	8r	.	8r	.	.	.	4.d#X\	-ni	4.f#\	-niſ	.	.	4.ryy	4.ryy
8B\L	x #_	.	8f#/L	.	8dd#X\L	.	.	.	.	.	.	.	.	.	.	.
8B\J	.	.	8f#/J	.	8dd#\J	.	.	.	.	.	.	.	.	.	.	.
=66	=66	=66	=66	=66	=66	=66	=66	=66	=66	=66	=66	=66	=66	=66	=66	=66
!	!	!	!	!	!	!	!	!	!LO:SIC:v:s=4d#\	!	!	!	!	!	!	!
8r	.	.	8r	.	8r	.	.	.	4d\	fi-	4f#\	fi-	.	.	4.ryy	4.ryy
!	!	!	!	!	!LO:SIC:v:s=8dd#\L	!	!	!	!	!	!	!	!	!	!	!
8A\L	.	.	8b\L	.	8dd\L	.	.	.	.	.	.	.	.	.	.	.
!	!	!	!	!	!LO:SIC:v:s=8dd#\J	!	!	!	!	!	!	!	!	!	!	!
8A\J	.	.	8b\J	.	8dd\J	.	.	.	16c#\LL	-lij	16e\LL	-lij	.	.	.	.
!	!	!	!	!	!	!	!	!	!LO:SIC:v:s=16d#\JJ	!	!	!	!	!	!	!
.	.	.	.	.	.	.	.	.	16d\JJ	.	16f#\JJ	.	.	.	.	.
=67	=67	=67	=67	=67	=67	=67	=67	=67	=67	=67	=67	=67	=67	=67	=67	=67
!	!	!	!	!	!	!	!LO:N:vis=00	!	!	!	!	!	!LO:N:vis=00	!	!	!
8r	.	.	8r	.	8r	.	1.r	.	4.e\	.	4.g#\	.	1.r	.	4.ryy	4.ryy
8G#\L	x 6	.	8b\L	.	8ee\L	.	.	.	.	.	.	.	.	.	.	.
8G#\J	.	.	8b\J	.	8ee\J	.	.	.	.	.	.	.	.	.	.	.
!	!	!	!	!	!	!	!	!	!LO:LB:g=original	!	!	!	!	!	!	!
=68	=68	=68	=68	=68	=68	=68	=68	=68	=68	=68	=68	=68	=68	=68	=68	=68
8r	.	.	8r	.	8r	.	.	.	4e\	Mer-	4g#\	mer-	.	.	4.ryy	4.ryy
8E\L	.	.	8g#/L	.	8ee\L	.	.	.	.	.	.	.	.	.	.	.
8E\J	.	.	8g#/J	.	8ee\J	.	.	.	16d#X\LL	-ces	16f#\LL	.	.	.	.	.
.	.	.	.	.	.	.	.	.	16e\JJ	.	16g#\JJ	.	.	.	.	.
=69	=69	=69	=69	=69	=69	=69	=69	=69	=69	=69	=69	=69	=69	=69	=69	=69
8r	.	.	8r	.	8r	.	.	.	4.f#\	.	4.a\	-ces	.	.	4.ryy	4.ryy
8A\L	x 6_	.	8cc#\L	.	8ee\L	.	.	.	.	.	.	.	.	.	.	.
8A\J	.	.	8cc#\J	.	8ff#\J	.	.	.	.	.	.	.	.	.	.	.
!	!	!	!LO:LB:g=original	!	!	!	!	!	!	!	!	!	!	!	!	!
=70	=70	=70	=70	=70	=70	=70	=70	=70	=70	=70	=70	=70	=70	=70	=70	=70
8r	.	.	8r	.	8r	.	.	.	8f#\L	fru-	8a\L	fru-	.	.	4.ryy	4.ryy
8A\L	.	.	8cc#\L	.	8ee\L	.	.	.	8a\J	.	8cc#\J	.	.	.	.	.
8A\J	.	.	8cc#\J	.	8ff#\J	.	.	.	8f#\	-ctus	8a\	-ctus	.	.	.	.
!LO:LB:g=original	!	!	!	!	!LO:LB:g=original	!	!	!	!	!	!LO:LB:g=original	!	!	!	!	!
=71	=71	=71	=71	=71	=71	=71	=71	=71	=71	=71	=71	=71	=71	=71	=71	=71
!	!	!	!	!	!	!	!LO:N:vis=00	!	!	!	!	!	!LO:N:vis=00	!	!	!
8r	.	.	8r	.	8r	.	1.r	.	4.e\	Ven-	4.g#\	Ven-	1.r	.	4.ryy	4.ryy
8B\L	x 4	.	8g#/L	.	8ee\L	.	.	.	.	.	.	.	.	.	.	.
8B\J	.	.	8g#/J	.	8ee\J	.	.	.	.	.	.	.	.	.	.	.
=72	=72	=72	=72	=72	=72	=72	=72	=72	=72	=72	=72	=72	=72	=72	=72	=72
8r	.	.	8r	.	8r	.	.	.	4.d#X\	.	4.f#\	.	.	.	4.ryy	4.ryy
8BB/L	x #	.	8f#/L	.	8dd#X\L	.	.	.	.	.	.	.	.	.	.	.
8BB/J	.	.	8f#/J	.	8dd#\J	.	.	.	.	.	.	.	.	.	.	.
=73	=73	=73	=73	=73	=73	=73	=73	=73	=73	=73	=73	=73	=73	=73	=73	=73
!	!	!LO:DY:a:Bi:t=for&colon;	!	!	!	!LO:DY:a:Bi:t=for&colon;	!	!	!	!	!	!	!	!	!	!
8E\	.	f	8g#/	.	8ee\	f	.	.	4e\	-tris	4g#\	-tris	.	.	4.ryy	4.ryy
!	!	!	!	!LO:DY:a	!	!	!	!	!	!	!	!	!	!	!	!
16r	.	.	16r	.	16r	.	.	.	.	.	.	.	.	.	.	.
!	!	!	!	!LO:DY:a:rj:Bi:t=f&colon;	!	!	!	!	!	!	!	!	!	!	!	!
16E|\LL	.	.	16e'/LL	f	16e|/LL	.	.	.	.	.	.	.	.	.	.	.
16G#|\	.	.	16g#'/	.	16g#|/	.	.	.	8r	.	8r	.	.	.	.	.
16B|\JJ	.	.	16b'/JJ	.	16b|/JJ	.	.	.	.	.	.	.	.	.	.	.
=74	=74	=74	=74	=74	=74	=74	=74	=74	=74	=74	=74	=74	=74	=74	=74	=74
!	!	!	!	!	!	!	!	!	!LO:TX:b:t=P:23:problem=dopisane ołówkiem	!	!LO:N:vis=00	!	!	!	!	!
!	!	!	!	!	!	!	!	!	!LO:N:vis=00	!	!	!	!	!	!	!
(16e\LL	.	.	(16ee\LL	.	(16ee\LL	.	.	.	1.r	.	1.r	.	.	.	4.ryy	4.ryy
16d#X\JJ)	.	.	16dd#X\JJ)	.	16dd#X\JJ)	.	.	.	.	.	.	.	.	.	.	.
!	!	!	!LO:TX:t=P:problem=mixed beam	!	!LO:TX:t=P:problem=mixed beam	!	!	!	!	!	!	!	!	!	!	!
16c#'\LL	.	.	16cc#'\LL	.	16cc#|\LL	.	.	.	.	.	.	.	.	.	.	.
16C#'\	.	.	16c#'/	.	16c#|/	.	.	.	.	.	.	.	.	.	.	.
16E'\	.	.	16e'/	.	16e|/	.	.	.	.	.	.	.	.	.	.	.
16G#'\JJ	.	.	16g#'/JJ	.	16g#|/JJ	.	.	.	.	.	.	.	.	.	.	.
=75	=75	=75	=75	=75	=75	=75	=75	=75	=75	=75	=75	=75	=75	=75	=75	=75
!	!	!	!	!	!	!	!LO:N:vis=0	!	!	!	!	!	!LO:N:vis=00	!	!	!
(16c#\LL	.	.	(16cc#\LL	.	(16cc#\LL	.	2.r	.	.	.	.	.	1.r	.	4.ryy	4.ryy
16B\JJ)	.	.	16b\JJ)	.	16b\JJ)	.	.	.	.	.	.	.	.	.	.	.
16A'\LL	.	.	16a'/LL	.	16a|/LL	.	.	.	.	.	.	.	.	.	.	.
16AA'/	.	.	16A'/	.	16A|/	.	.	.	.	.	.	.	.	.	.	.
16C#'/	.	.	16c#'/	.	16c#|/	.	.	.	.	.	.	.	.	.	.	.
16E'/JJ	.	.	16e'/JJ	.	16e|/JJ	.	.	.	.	.	.	.	.	.	.	.
!	!	!	!LO:LB:g=original	!	!	!	!	!	!	!	!	!	!	!	!	!
=76	=76	=76	=76	=76	=76	=76	=76	=76	=76	=76	=76	=76	=76	=76	=76	=76
16A'\LL	.	.	16a'/LL	.	16a|/LL	.	.	.	.	.	.	.	.	.	4.ryy	4.ryy
16G#'\	.	.	16g#'/	.	16g#|/	.	.	.	.	.	.	.	.	.	.	.
16A'\	.	.	16a'/	.	16a|/	.	.	.	.	.	.	.	.	.	.	.
16B'\	.	.	16b'/	.	16b|/	.	.	.	.	.	.	.	.	.	.	.
16c#'\	.	.	16cc#'/	.	16cc#|/	.	.	.	.	.	.	.	.	.	.	.
16d#X'\JJ	.	.	16dd#X'/JJ	.	16dd#X|/JJ	.	.	.	.	.	.	.	.	.	.	.
!LO:LB:g=original	!	!	!	!	!LO:LB:g=original	!	!	!	!	!	!	!	!	!	!	!
=77	=77	=77	=77	=77	=77	=77	=77	=77	=77	=77	=77	=77	=77	=77	=77	=77
16e|\LL	.	.	16ee'\LL	.	16ee|\LL	.	4.r	.	.	.	.	.	.	.	4.ryy	4.ryy
16c#|\J	.	.	16cc#'\J	.	16cc#|\J	.	.	.	.	.	.	.	.	.	.	.
8A|\	.	.	8a'\	.	8a|\	.	.	.	.	.	.	.	.	.	.	.
8B|\J	.	.	8b|\J	.	8b|\J	.	.	.	.	.	.	.	.	.	.	.
=78	=78	=78	=78	=78	=78	=78	=78	=78	=78	=78	=78	=78	=78	=78	=78	=78
!	!	!LO:DY:a:Bi:t=p&colon;	!	!LO:DY:a:Bi:t=p&colon;	!	!LO:DY:a:Bi:t=p&colon;	!LO:TX:a:i:t=Solo	!	!LO:N:vis=00	!	!LO:N:vis=00	!	!	!	!	!
8E\L	.	p	8e/L	p	8e/L	p	8r	.	1.r	.	1.r	.	.	.	4.ryy	4.ryy
!LO:SIC:v:s=8E|\	!	!	!	!	!	!	!	!	!	!	!	!	!	!	!	!
8D|\	.	.	8e/	.	8e|/	.	8E\	Si-	.	.	.	.	.	.	.	.
8G#|\J	.	.	8g#/J	.	8g#|/J	.	8G#\	-cut	.	.	.	.	.	.	.	.
=79	=79	=79	=79	=79	=79	=79	=79	=79	=79	=79	=79	=79	=79	=79	=79	=79
!	!	!	!	!	!LO:TX:t=P:problem=mixed beam	!	!	!	!	!	!	!	!LO:N:vis=00	!	!	!
8B'\L	.	.	8b\L	.	8b|/L	.	16B\	Sa-	.	.	.	.	1.r	.	4.ryy	4.ryy
.	.	.	.	.	.	.	16B\	-git-	.	.	.	.	.	.	.	.
8G#'\	.	.	8g#\	.	8g#|/	.	8G#\	-tae	.	.	.	.	.	.	.	.
8e'\J	.	.	8ee\J	.	8ee|\J	.	8e\	in	.	.	.	.	.	.	.	.
=80	=80	=80	=80	=80	=80	=80	=80	=80	=80	=80	=80	=80	=80	=80	=80	=80
8c#'\L	.	.	8cc#\L	.	8cc#|\L	.	8c#\	Ma-	.	.	.	.	.	.	4.ryy	4.ryy
8A'\	.	.	8a\	.	8a|\	.	8A\	-nu	.	.	.	.	.	.	.	.
8B'\J	.	.	8b\J	.	8b|\J	.	8B\	po-	.	.	.	.	.	.	.	.
=81	=81	=81	=81	=81	=81	=81	=81	=81	=81	=81	=81	=81	=81	=81	=81	=81
16G#'\LL	.	.	16g#/LL	.	16g#/LL	.	8G#\	-ten-	.	.	.	.	.	.	4.ryy	4.ryy
(32E\L	.	.	(32e/L	.	(32e/L	.	.	.	.	.	.	.	.	.	.	.
32F#\JJJ)	.	.	32f#/JJJ)	.	32f#/JJJ)	.	.	.	.	.	.	.	.	.	.	.
16G#'\LL	.	.	16g#'/LL	.	16g#|/LL	.	8E\	-tis	.	.	.	.	.	.	.	.
16E'\	.	.	16e'/	.	16e|/	.	.	.	.	.	.	.	.	.	.	.
16G#'\	.	.	16g#'/	.	16g#|/	.	8r	.	.	.	.	.	.	.	.	.
16B'\JJ	.	.	16b'/JJ	.	16b|/JJ	.	.	.	.	.	.	.	.	.	.	.
!	!	!	!	!	!	!	!LO:LB:g=original	!	!	!	!	!	!	!	!	!
=82	=82	=82	=82	=82	=82	=82	=82	=82	=82	=82	=82	=82	=82	=82	=82	=82
!	!	!	!LO:TX:t=P:problem=mixed beam	!	!	!	!	!	!LO:N:vis=00	!	!LO:N:vis=00	!	!	!	!	!
8e'\L	.	.	8ee\L	.	8ee|\L	.	8r	.	1.r	.	1.r	.	.	.	4.ryy	4.ryy
8E'\J	.	.	8e/J	.	8e/J	.	8c#\	i-	.	.	.	.	.	.	.	.
8r	.	.	8r	.	8r	.	8B\	-ta	.	.	.	.	.	.	.	.
!	!	!	!LO:LB:g=original	!	!	!	!	!	!	!	!	!	!	!	!	!
=83	=83	=83	=83	=83	=83	=83	=83	=83	=83	=83	=83	=83	=83	=83	=83	=83
!	!	!	!	!	!	!	!	!	!	!	!	!	!LO:N:vis=00	!	!	!
8E\L	4#r_ 2_	.	8c#/L	.	8f#/L	.	4A#X\	fi-	.	.	.	.	1.r	.	4.ryy	4.ryy
8E\	.	.	8c#/	.	8f#/	.	.	.	.	.	.	.	.	.	.	.
8E\J	.	.	8c#/J	.	8f#/J	.	16G#\LL	-lij	.	.	.	.	.	.	.	.
.	.	.	.	.	.	.	16A#\JJ	.	.	.	.	.	.	.	.	.
!LO:LB:g=original	!	!	!	!	!	!	!	!	!	!	!	!	!	!	!	!
=84	=84	=84	=84	=84	=84	=84	=84	=84	=84	=84	=84	=84	=84	=84	=84	=84
4D\	x 6	.	4dn/	.	4f#/	.	8B\	.	.	.	.	.	.	.	4.ryy	4.ryy
*	*	*	*	*	*	*	*	*ij	*	*	*	*	*	*	*	*
.	.	.	.	.	.	.	8B\	i-	.	.	.	.	.	.	.	.
8r	.	.	8r	.	8r	.	8A\	-ta	.	.	.	.	.	.	.	.
!	!	!	!	!	!LO:LB:g=original	!	!	!	!	!	!	!	!	!	!	!
=85	=85	=85	=85	=85	=85	=85	=85	=85	=85	=85	=85	=85	=85	=85	=85	=85
8D\L	7_ 2_	.	8B/L	.	8e/L	.	4G#\	fi-	.	.	.	.	.	.	4.ryy	4.ryy
8D\	.	.	8B/	.	8e/	.	.	.	.	.	.	.	.	.	.	.
8D\J	.	.	8B/J	.	8e/J	.	16F#\LL	-lij	.	.	.	.	.	.	.	.
*	*	*	*	*	*	*	*	*Xij	*	*	*	*	*	*	*	*
.	.	.	.	.	.	.	16G#\JJ	.	.	.	.	.	.	.	.	.
=86	=86	=86	=86	=86	=86	=86	=86	=86	=86	=86	=86	=86	=86	=86	=86	=86
*	*	*	*	*	*tremolo	*	*	*	*	*	*	*	*	*	*	*
!	!	!	!	!	!	!	!	!	!LO:N:vis=00	!	!LO:N:vis=0	!	!	!	!	!
8C#/L	x 6	.	8c#/L	.	8e/L	.	8A\	.	1.r	.	2.r	.	.	.	4.ryy	4.ryy
8AA/	.	.	8c#/	.	8e/	.	8A\	i-	.	.	.	.	.	.	.	.
8BB/J	x 6\	.	8d/J	.	8e/J	.	8G#\	-ta	.	.	.	.	.	.	.	.
!	!	!	!	!	!	!	!LO:PB:g=original	!	!	!	!	!	!	!	!	!
=87	=87	=87	=87	=87	=87	=87	=87	=87	=87	=87	=87	=87	=87	=87	=87	=87
!	!	!	!	!	!	!	!	!	!	!	!	!	!LO:N:vis=0	!	!	!
8C#/L	x 6	.	8c#/L	.	8e/L	.	8.A\	fi-	.	.	.	.	2.r	.	4.ryy	4.ryy
8GG#/	6 5	.	8d/	.	8e/	.	.	.	.	.	.	.	.	.	.	.
.	.	.	.	.	.	.	16B\	-lij	.	.	.	.	.	.	.	.
8AA/J	.	.	8c#/J	.	8e/J	.	8c#\	.	.	.	.	.	.	.	.	.
*	*	*	*	*	*Xtremolo	*	*	*	*	*	*	*	*	*	*	*
=88	=88	=88	=88	=88	=88	=88	=88	=88	=88	=88	=88	=88	=88	=88	=88	=88
!LO:TX:t=P:problem=mixed beam	!	!	!	!	!	!	!	!	!	!	!	!	!	!	!	!
8D\L	x 6	.	8d/L	.	8b/L	.	16d\	Ex-	.	.	4.r	.	.	.	4.ryy	4.ryy
.	.	.	.	.	.	.	16d\	-cuſ-	.	.	.	.	.	.	.	.
8E\	x 4	.	8c#/	.	8a/	.	8e\L	-so-	.	.	.	.	.	.	.	.
8EE/J	x 3	.	8B/J	.	8g#/J	.	8E\J	.	.	.	.	.	.	.	.	.
=89	=89	=89	=89	=89	=89	=89	=89	=89	=89	=89	=89	=89	=89	=89	=89	=89
!	!	!	!	!	!	!	!	!	!	!	!LO:TX:a:rj:i:t=Solo&colon;	!	!LO:TX:a:rj:i:t=Solo&colon;	!	!	!
8AA/L	.	.	8c#/L	.	8a\L	.	4A\	-rum	.	.	8a\	Be-	8cc#\	Be-	4.ryy	4.ryy
8AA/	.	.	8a/	.	8cc#\	.	.	.	.	.	8a\	-a-	8cc#\	-a-	.	.
8AA/J	4 2	.	8b/J	.	8dd\J	.	8r	.	.	.	8b\	-tus	8dd\	-tus	.	.
=90	=90	=90	=90	=90	=90	=90	=90	=90	=90	=90	=90	=90	=90	=90	=90	=90
!	!	!	!	!	!	!	!LO:N:vis=00	!	!LO:N:vis=00	!	!	!	!	!	!	!
8AA/L	x 3_	.	4cc#\	.	4ee\	.	1.r	.	1.r	.	4cc#\	Vir	4ee\	Vir	4.ryy	4.ryy
8AA/	.	.	.	.	.	.	.	.	.	.	.	.	.	.	.	.
8AA/J	4 2	.	16dd\LL	.	16ff#\LL	.	.	.	.	.	16dd\LL	qvi	16ff#\LL	qvi	.	.
.	.	.	16b\JJ	.	16dd\JJ	.	.	.	.	.	16b\JJ	.	16dd\JJ	.	.	.
!	!	!	!LO:LB:g=original	!	!	!	!	!	!	!	!	!	!	!	!	!
=91	=91	=91	=91	=91	=91	=91	=91	=91	=91	=91	=91	=91	=91	=91	=91	=91
8AA/L	x 3_	.	8a/L	.	8cc#\L	.	.	.	.	.	8a\	im-	8cc#\	im-	4.ryy	4.ryy
8AA/	.	.	8a/	.	8cc#\	.	.	.	.	.	8a\	-ple-	8cc#\	-ple-	.	.
8AA/J	4 2	.	8b/J	.	8dd\J	.	.	.	.	.	8b\	-vit	8dd\	-vit	.	.
!LO:LB:g=original	!	!	!	!	!	!	!	!	!	!	!LO:LB:g=original	!	!	!	!	!
=92	=92	=92	=92	=92	=92	=92	=92	=92	=92	=92	=92	=92	=92	=92	=92	=92
8AA/L	x 3_	.	4cc#\	.	4ee\	.	.	.	.	.	4cc#\	De-	4ee\	de-	4.ryy	4.ryy
8AA/	.	.	.	.	.	.	.	.	.	.	.	.	.	.	.	.
8AA/J	4 2	.	16dd\LL	.	16ff#\LL	.	.	.	.	.	16dd\LL	-ſi-	16ff#\LL	-ſi-	.	.
.	.	.	16b\JJ	.	16dd\JJ	.	.	.	.	.	16b\JJ	.	16dd\JJ	.	.	.
!	!	!	!	!	!	!	!	!	!	!	!	!	!LO:LB:g=original	!	!	!
=93	=93	=93	=93	=93	=93	=93	=93	=93	=93	=93	=93	=93	=93	=93	=93	=93
8AA/L	x 3_	.	8.a/L	.	(8.cc#\L	.	.	.	.	.	8.a\	-de-	8.cc#\	-de-	4.ryy	4.ryy
8AA/	.	.	.	.	.	.	.	.	.	.	.	.	.	.	.	.
.	.	.	16b/K	.	16dd\K)	.	.	.	.	.	16b\	-ri-	16dd\	-ri-	.	.
8AA/J	.	.	8cc#/J	.	8ee\J	.	.	.	.	.	8cc#\	-um	8ee\	-um	.	.
!	!	!	!	!	!LO:LB:g=original	!	!	!	!	!	!	!	!	!	!	!
=94	=94	=94	=94	=94	=94	=94	=94	=94	=94	=94	=94	=94	=94	=94	=94	=94
!	!	!	!	!	!	!	!LO:N:vis=0	!	!LO:N:vis=0	!	!	!	!	!	!	!
8AA/L	6_ 4_	.	4dd\	.	4ff#\	.	2.r	.	2.r	.	4dd\	Su-	4ff#\	Su-	4.ryy	4.ryy
8AA/	.	.	.	.	.	.	.	.	.	.	.	.	.	.	.	.
8AA/J	5 3	.	8cc#\	.	8ee\	.	.	.	.	.	8cc#\	-um	8ee\	-um	.	.
=95	=95	=95	=95	=95	=95	=95	=95	=95	=95	=95	=95	=95	=95	=95	=95	=95
!LO:TX:t=P:problem=mixed beam	!	!	!	!	!	!	!	!	!	!	!	!	!	!	!	!
8D\L	x 6	.	8b/L	.	8dd\L	.	.	.	.	.	8b\	ex	8dd\	ex	4.ryy	4.ryy
8E\	x 4	.	8a/	.	8cc#\	.	.	.	.	.	8a\L	ip-	8cc#\L	ip-	.	.
8EE/J	x 3	.	8g#/J	.	8b\J	.	.	.	.	.	8g#\J	.	8b\J	.	.	.
=96	=96	=96	=96	=96	=96	=96	=96	=96	=96	=96	=96	=96	=96	=96	=96	=96
!LO:TX:t=P:problem=mixed beam	!	!LO:DY:a:Bi:t=for&colon;	!	!LO:DY:a:Bi:t=f&colon;	!	!LO:DY:a:Bi:t=f&colon;	!	!	!	!	!	!	!	!	!	!
16AA/LL	.	f	(16.a/LL	f	(16.a/LL	f	4.r	.	4.r	.	4a\	-ſis	4cc#\	-ſis	4.ryy	4.ryy
32A\L	.	.	.	.	.	.	.	.	.	.	.	.	.	.	.	.
32G#\JJJ	.	.	32g#/JJk)	.	32g#/JJk)	.	.	.	.	.	.	.	.	.	.	.
!LO:TX:t=P:problem=mixed beam	!	!	!	!	!	!	!	!	!	!	!	!	!	!	!	!
16A'\LL	.	.	16a'/LL	.	16a|/LL	.	.	.	.	.	.	.	.	.	.	.
16AA'/	.	.	16A'/	.	16A|/	.	.	.	.	.	.	.	.	.	.	.
16C#'/	.	.	16c#'/	.	16c#|/	.	.	.	.	.	8r	.	8r	.	.	.
16E'/JJ	.	.	16e'/JJ	.	16e|/JJ	.	.	.	.	.	.	.	.	.	.	.
=97	=97	=97	=97	=97	=97	=97	=97	=97	=97	=97	=97	=97	=97	=97	=97	=97
8A|\	.	.	8a'/	.	8a 8e 8c# 8A/	.	8r	.	8r	.	8r	.	8r	.	4.ryy	4.ryy
8r	.	.	8r	.	8r	.	8A\	non	8e\	non	8a\	non	8cc#\	non	.	.
8r	.	.	8r	.	8r	.	8r	.	8r	.	8r	.	8r	.	.	.
!	!	!	!LO:LB:g=original	!	!	!	!	!	!LO:LB:g=original	!	!LO:LB:g=original	!	!	!	!	!
=98	=98	=98	=98	=98	=98	=98	=98	=98	=98	=98	=98	=98	=98	=98	=98	=98
8E\	.	.	8b 8e/	.	8gg# 8b 8e\	.	8r	.	8r	.	8r	.	8r	.	4.ryy	4.ryy
*	*	*	*	*	*	*	*	*ij	*	*	*	*	*	*ij	*	*
8r	.	.	8r	.	8r	.	8E\	non	8e\	non	8g#\	non	8b\	non	.	.
8r	.	.	8r	.	8r	.	8r	.	8r	.	8r	.	8r	.	.	.
=99	=99	=99	=99	=99	=99	=99	=99	=99	=99	=99	=99	=99	=99	=99	=99	=99
8A\	.	.	8cc# 8e/	.	8aa 8cc# 8e\	.	8r	.	8r	.	8r	.	8r	.	4.ryy	4.ryy
*	*	*	*	*	*	*	*	*	*	*	*	*ij	*	*	*	*
8r	.	.	8r	.	8r	.	8A\	non	8e\	non	8a\	non	8cc#\	non	.	.
*	*	*	*	*	*	*	*	*Xij	*	*	*	*Xij	*	*Xij	*	*
!	!	!	!	!	!LO:TX:b:i:t=Verte	!	!	!	!	!	!	!	!	!	!	!
8r	.	.	8r	.	8r	.	8r	.	8r	.	8r	.	8r	.	.	.
!LO:LB:g=original	!	!	!	!	!LO:PB:g=original	!	!LO:LB:g=original	!	!	!	!	!	!LO:LB:g=original	!	!	!
=100	=100	=100	=100	=100	=100	=100	=100	=100	=100	=100	=100	=100	=100	=100	=100	=100
!LO:TX:a:rj:i:t=tut	!	!	!	!	!	!	!	!	!	!	!	!	!	!	!	!
8D\L	.	.	8a/L	.	8ff#\LLL	.	8d\	non	8d\	non	8a\	non	8ff#\	non	4.ryy	4.ryy
8d\	.	.	8a/	.	(32ff#\	.	8d\	Con-	8d\	Con-	8a\	Con-	8ff#\	Con-	.	.
.	.	.	.	.	32ee\	.	.	.	.	.	.	.	.	.	.	.
.	.	.	.	.	32ff#\	.	.	.	.	.	.	.	.	.	.	.
.	.	.	.	.	32gg#\JJJ)	.	.	.	.	.	.	.	.	.	.	.
8c#\J	x 6	.	8a/J	.	16aa\LL	.	8c#\	-fun-	8e\	-fun-	8a\	-fun-	8ee\	-fun-	.	.
.	.	.	.	.	16ee\JJ	.	.	.	.	.	.	.	.	.	.	.
=101	=101	=101	=101	=101	=101	=101	=101	=101	=101	=101	=101	=101	=101	=101	=101	=101
4G#\	6 5	.	8b/L	.	16ee\LL	.	4G#\	-de-	4e\	-de-	4b\	-de-	4dd\	-de-	4.ryy	4.ryy
.	.	.	.	.	16dd\	.	.	.	.	.	.	.	.	.	.	.
.	.	.	8b/	.	16b\	.	.	.	.	.	.	.	.	.	.	.
.	.	.	.	.	16dd\	.	.	.	.	.	.	.	.	.	.	.
8A\	.	.	8a/J	.	16cc#\	.	8A\	-tur	8e\	-tur	8a\	-tur	8cc#\	-tur	.	.
.	.	.	.	.	16aa\JJ	.	.	.	.	.	.	.	.	.	.	.
=102	=102	=102	=102	=102	=102	=102	=102	=102	=102	=102	=102	=102	=102	=102	=102	=102
8D\L	.	.	8a/L	.	8ff#\L	.	4d\	Cum	4d\	Cum	4a\	Cum	4ff#\	cum	4.ryy	4.ryy
8d\	.	.	8a/	.	(32ff#\LL	.	.	.	.	.	.	.	.	.	.	.
.	.	.	.	.	32ee\	.	.	.	.	.	.	.	.	.	.	.
.	.	.	.	.	32ff#\	.	.	.	.	.	.	.	.	.	.	.
.	.	.	.	.	32gg#\JJJ)	.	.	.	.	.	.	.	.	.	.	.
8c#\J	x 6	.	8a/J	.	16aa\LL	.	8c#\	lo-	8e\	lo-	8a\	lo-	8ee\	lo-	.	.
.	.	.	.	.	16ee\JJ	.	.	.	.	.	.	.	.	.	.	.
=103	=103	=103	=103	=103	=103	=103	=103	=103	=103	=103	=103	=103	=103	=103	=103	=103
4G#\	6 5	.	8b/L	.	16ee\LL	.	4G#\	-qve-	4e\	-qve-	4b\	-qve-	4dd\	-qve-	4.ryy	4.ryy
.	.	.	.	.	16dd\	.	.	.	.	.	.	.	.	.	.	.
.	.	.	8b/	.	16b\	.	.	.	.	.	.	.	.	.	.	.
.	.	.	.	.	16dd\	.	.	.	.	.	.	.	.	.	.	.
8A\	.	.	8a/J	.	16cc#\	.	8A\	-tur	8e\	-tur	8a\	-tur	8cc#\	-tur	.	.
.	.	.	.	.	16aa\JJ	.	.	.	.	.	.	.	.	.	.	.
=104	=104	=104	=104	=104	=104	=104	=104	=104	=104	=104	=104	=104	=104	=104	=104	=104
8B\L	x 6_	.	8dd/L	.	(16aa\LL	.	8B\	i-	8e\	i-	8g#\	i-	8dd\	i-	4.ryy	4.ryy
.	.	.	.	.	16gg#\)	.	.	.	.	.	.	.	.	.	.	.
8G#\	.	.	8b/	.	(16bb\	.	8G#\	-ni-	8e\	-ni-	8g#\	-ni-	8dd\	-ni-	.	.
.	.	.	.	.	16dd\)	.	.	.	.	.	.	.	.	.	.	.
!	!	!	!	!	!	!	!	!	!	!	!LO:LB:g=original	!	!	!	!	!
8E\J	.	.	8g#/J	.	(16bb\	.	8E\	-mi-	8e\	-mi-	8b\	-mi-	8dd\	-mi-	.	.
.	.	.	.	.	16dd\JJ)	.	.	.	.	.	.	.	.	.	.	.
!	!	!	!LO:LB:g=original	!	!	!	!	!	!LO:LB:g=original	!	!	!	!	!	!	!
=105	=105	=105	=105	=105	=105	=105	=105	=105	=105	=105	=105	=105	=105	=105	=105	=105
!LO:TX:t=P:problem=mixed beam	!	!	!LO:TX:t=P:problem=mixed beam	!	!	!	!	!	!	!	!	!	!	!	!	!
8A\L	.	.	8e/L	.	16dd\LL	.	8A\	-cis	8e\	-cis	8a\	-cis	8cc#\	-cis	4.ryy	4.ryy
.	.	.	.	.	16cc#\	.	.	.	.	.	.	.	.	.	.	.
8AA/	.	.	8cc#\	.	16ee\	.	8c#\	Su-	8e\	su-	8a\	Su-	8cc#\	Su-	.	.
.	.	.	.	.	16aa\	.	.	.	.	.	.	.	.	.	.	.
8C#/J	x 6	.	8cc#\J	.	16ee\	.	8c#\	-is	8e\	-is	8a\	-is	8ee\	-is	.	.
.	.	.	.	.	16aa\JJ	.	.	.	.	.	.	.	.	.	.	.
!	!	!	!	!	!LO:LB:g=original	!	!LO:LB:g=original	!	!	!	!	!	!LO:LB:g=original	!	!	!
=106	=106	=106	=106	=106	=106	=106	=106	=106	=106	=106	=106	=106	=106	=106	=106	=106
!LO:TX:t=P:problem=mixed beam	!	!	!	!	!	!	!	!	!	!	!	!	!	!	!	!
8D\L	x 6	.	8b/L	.	16ff#\LL	.	8d\	in	8f#\	in	8b\	in	8dd\	in	4.ryy	4.ryy
.	.	.	.	.	16dd\J	.	.	.	.	.	.	.	.	.	.	.
8E\	x 4	.	8a/	.	8cc#\	.	8e\L	por-	4e\	por-	8a\L	por-	8cc#\L	por-	.	.
8EE/J	x 3	.	8g#/J	.	8b\J	.	8E\J	.	.	.	8g#\J	.	8b\J	.	.	.
=107	=107	=107	=107	=107	=107	=107	=107	=107	=107	=107	=107	=107	=107	=107	=107	=107
!LO:TX:a:i:t=Solo&colon;	!	!	!LO:TX:a:i:t=Solo&colon;	!	!LO:TX:a:i:t=Solo	!	!	!	!	!	!	!	!	!	!	!
4AA/	.	.	4e/	.	16cc#\LL	.	4A\	-ta	4e\	-ta	4a\	-ta	4cc#\	-ta	4.ryy	4.ryy
.	.	.	.	.	16ee\	.	.	.	.	.	.	.	.	.	.	.
.	.	.	.	.	16dd\	.	.	.	.	.	.	.	.	.	.	.
.	.	.	.	.	16cc#\	.	.	.	.	.	.	.	.	.	.	.
8C#/	x 6	.	8e/	.	16b\	.	8r	.	8r	.	8r	.	8r	.	.	.
.	.	.	.	.	16a#X\JJ	.	.	.	.	.	.	.	.	.	.	.
!LO:LB:g=original	!	!	!	!	!	!	!	!	!	!	!	!	!	!	!	!
=108	=108	=108	=108	=108	=108	=108	=108	=108	=108	=108	=108	=108	=108	=108	=108	=108
!	!	!	!	!	!	!	!	!	!LO:TX:b:t=P:11:problem=dopisane ołówkiem	!	!	!	!LO:TX:b:t=P:11:problem=dopisane ołówkiem	!	!	!
!	!	!	!	!	!	!	!LO:N:vis=00	!	!LO:N:vis=00	!	!LO:N:vis=0	!	!LO:N:vis=00	!	!	!
4D\	x 6	.	4f#/	.	(16b\LL	.	1.r	.	1.r	.	2.r	.	1.r	.	4.ryy	4.ryy
.	.	.	.	.	16dd\	.	.	.	.	.	.	.	.	.	.	.
.	.	.	.	.	16cc#\	.	.	.	.	.	.	.	.	.	.	.
.	.	.	.	.	16b\JJ)	.	.	.	.	.	.	.	.	.	.	.
8E\	.	.	8B/	.	16an/LL	.	.	.	.	.	.	.	.	.	.	.
.	.	.	.	.	16g#/JJ	.	.	.	.	.	.	.	.	.	.	.
=109	=109	=109	=109	=109	=109	=109	=109	=109	=109	=109	=109	=109	=109	=109	=109	=109
4F#\	.	.	4c#/	.	16b/LL	.	.	.	.	.	.	.	.	.	4.ryy	4.ryy
.	.	.	.	.	16a/	.	.	.	.	.	.	.	.	.	.	.
.	.	.	.	.	16g#/	.	.	.	.	.	.	.	.	.	.	.
.	.	.	.	.	16a/JJ	.	.	.	.	.	.	.	.	.	.	.
8C#/	x 6	.	8e/	.	16cc#\LL	.	.	.	.	.	.	.	.	.	.	.
.	.	.	.	.	16ee\JJ	.	.	.	.	.	.	.	.	.	.	.
=110	=110	=110	=110	=110	=110	=110	=110	=110	=110	=110	=110	=110	=110	=110	=110	=110
!LO:TX:t=P:problem=mixed beam	!	!	!	!	!	!	!	!	!	!	!	!	!	!	!	!
8D\L	x 6	.	8d/L	.	16dd\LL	.	.	.	.	.	4.r	.	.	.	4.ryy	4.ryy
.	.	.	.	.	16b\JJ	.	.	.	.	.	.	.	.	.	.	.
8E\	x 4	.	8c#/	.	8a/L	.	.	.	.	.	.	.	.	.	.	.
8EE/J	x 3	.	8B/J	.	8g#/J	.	.	.	.	.	.	.	.	.	.	.
=111	=111	=111	=111	=111	=111	=111	=111	=111	=111	=111	=111	=111	=111	=111	=111	=111
!LO:TX:t=P:problem=mixed beam	!	!LO:DY:a:Bi:t=p&colon;	!	!LO:DY:a:Bi:t=p&colon;	!	!LO:DY:a:Bi:t=p&colon;	!	!	!	!	!LO:TX:a:rj:i:t=Solo&colon;	!	!	!	!	!
8AA/L	.	p	8c#/L	p	8a\L	p	.	.	.	.	4a\	Glo-	.	.	4.ryy	4.ryy
8A\	.	.	8e/	.	8cc#\	.	.	.	.	.	.	.	.	.	.	.
8A\J	.	.	8e/J	.	8cc#\J	.	.	.	.	.	16b\	-ri-	.	.	.	.
.	.	.	.	.	.	.	.	.	.	.	16cc#\	-a	.	.	.	.
!	!	!	!	!	!	!	!	!	!	!	!LO:LB:g=original	!	!	!	!	!
=112	=112	=112	=112	=112	=112	=112	=112	=112	=112	=112	=112	=112	=112	=112	=112	=112
!	!	!	!	!	!	!	!LO:N:vis=00	!	!LO:N:vis=00	!	!	!	!LO:N:vis=00	!	!	!
8r	.	.	8r	.	8r	.	1.r	.	1.r	.	16b\LL	pa-	1.r	.	4.ryy	4.ryy
.	.	.	.	.	.	.	.	.	.	.	16g#\JJ	.	.	.	.	.
8G#\L	6_ 5_	.	8e/L	.	8b\L	.	.	.	.	.	8e\	-tri	.	.	.	.
8G#\J	.	.	8e/J	.	8b\J	.	.	.	.	.	8r	.	.	.	.	.
!	!	!	!LO:LB:g=original	!	!LO:LB:g=original	!	!	!	!	!	!	!	!	!	!	!
=113	=113	=113	=113	=113	=113	=113	=113	=113	=113	=113	=113	=113	=113	=113	=113	=113
8r	.	.	8r	.	8r	.	.	.	.	.	4e\	Glo-	.	.	4.ryy	4.ryy
8G#\L	.	.	8e/L	.	8b\L	.	.	.	.	.	.	.	.	.	.	.
8G#\J	.	.	8e/J	.	8b\J	.	.	.	.	.	16g#\	-ri-	.	.	.	.
.	.	.	.	.	.	.	.	.	.	.	16b\	-a	.	.	.	.
=114	=114	=114	=114	=114	=114	=114	=114	=114	=114	=114	=114	=114	=114	=114	=114	=114
8r	x x	.	8r	.	8r	.	.	.	.	.	16b\	fi-	.	.	4.ryy	4.ryy
.	.	.	.	.	.	.	.	.	.	.	16a\	-li-	.	.	.	.
8A\L	.	.	8e/L	.	8cc#\L	.	.	.	.	.	8a\	-o	.	.	.	.
8A\J	.	.	8e/J	.	8cc#\J	.	.	.	.	.	8r	.	.	.	.	.
=115	=115	=115	=115	=115	=115	=115	=115	=115	=115	=115	=115	=115	=115	=115	=115	=115
8r	.	.	8r	.	8r	.	.	.	.	.	4a\	&	.	.	4.ryy	4.ryy
8A\L	.	.	8e/L	.	8cc#\L	.	.	.	.	.	.	.	.	.	.	.
8A\J	.	.	8e/J	.	8cc#\J	.	.	.	.	.	16cc#\LL	Spi-	.	.	.	.
.	.	.	.	.	.	.	.	.	.	.	16ee\JJ	.	.	.	.	.
!LO:LB:g=original	!	!	!	!	!	!	!	!	!	!	!	!	!	!	!	!
=116	=116	=116	=116	=116	=116	=116	=116	=116	=116	=116	=116	=116	=116	=116	=116	=116
!	!	!	!	!	!	!	!LO:N:vis=0	!	!LO:N:vis=0	!	!	!	!LO:N:vis=0	!	!	!
8C#/L	x 6_	.	8a/L	.	8ee\L	.	2.r	.	2.r	.	16dd\LL	-ri-	2.r	.	4.ryy	4.ryy
.	.	.	.	.	.	.	.	.	.	.	16cc#\JJ	.	.	.	.	.
8C#/	.	.	8a/	.	8ee\	.	.	.	.	.	16b\LL	-tu-	.	.	.	.
.	.	.	.	.	.	.	.	.	.	.	16a\JJ	.	.	.	.	.
8C#/J	.	.	8a/J	.	8ee\J	.	.	.	.	.	16g#\LL	-i	.	.	.	.
.	.	.	.	.	.	.	.	.	.	.	16a\JJ	.	.	.	.	.
!	!	!	!	!	!	!	!	!	!	!	!LO:LB:g=original	!	!	!	!	!
=117	=117	=117	=117	=117	=117	=117	=117	=117	=117	=117	=117	=117	=117	=117	=117	=117
!LO:TX:t=P:problem=mixed beam	!	!	!	!	!	!	!	!	!	!	!	!	!	!	!	!
8D\L	x 6	.	8b/L	.	8dd\L	.	.	.	.	.	16dd\LL	Sanc-	.	.	4.ryy	4.ryy
.	.	.	.	.	.	.	.	.	.	.	16b\JJ	.	.	.	.	.
8E\	x 4	.	8a/	.	8cc#\	.	.	.	.	.	8a\L	.	.	.	.	.
8EE/J	x 3	.	8g#/J	.	8b\J	.	.	.	.	.	8g#\J	.	.	.	.	.
=118	=118	=118	=118	=118	=118	=118	=118	=118	=118	=118	=118	=118	=118	=118	=118	=118
!LO:TX:t=P:problem=mixed beam	!	!	!	!LO:DY:a:Bi:t=for&colon;	!	!LO:DY:a:Bi:t=f&colon;	!	!	!	!	!	!	!	!	!	!
8AA/L	.	.	8a/L	f	8a/L	f	4.r	.	4.r	.	4a\	-to	4.r	.	4.ryy	4.ryy
8A\J	.	.	8c#/J	.	(32a/LL	.	.	.	.	.	.	.	.	.	.	.
.	.	.	.	.	32g#/	.	.	.	.	.	.	.	.	.	.	.
.	.	.	.	.	32a/	.	.	.	.	.	.	.	.	.	.	.
.	.	.	.	.	32b/JJJ)	.	.	.	.	.	.	.	.	.	.	.
8r	.	.	32a/LLL	.	(32cc#\LLL	.	.	.	.	.	8r	.	.	.	.	.
.	.	.	(32g#/	.	32b\	.	.	.	.	.	.	.	.	.	.	.
.	.	.	32a/	.	32cc#\	.	.	.	.	.	.	.	.	.	.	.
.	.	.	32b/JJJ)	.	32dd\JJJ)	.	.	.	.	.	.	.	.	.	.	.
=119	=119	=119	=119	=119	=119	=119	=119	=119	=119	=119	=119	=119	=119	=119	=119	=119
!LO:TX:a:rj:i:t=tutti	!	!	!	!	!	!	!	!	!	!	!	!	!	!	!	!
8AA/	.	.	8cc#\	.	8ee\	.	8r	.	8r	.	8r	.	8r	.	4.ryy	4.ryy
8r	.	.	8r	.	8r	.	8A\	Si-	8e\	Si-	8cc#\	Si-	8ee\	Si-	.	.
.	.	.	.	.	8qdd/	.	.	.	.	.	.	.	.	.	.	.
8r	.	.	16a/LL	.	16cc#\LL	.	8A\	-cut	8e\	-cut	8a\	-cut	8cc#\	-cut	.	.
.	.	.	32g#/L	.	32b\L	.	.	.	.	.	.	.	.	.	.	.
.	.	.	32a/JJJ	.	32cc#\JJJ	.	.	.	.	.	.	.	.	.	.	.
!	!	!	!LO:LB:g=original	!	!LO:LB:g=original	!	!	!	!	!	!	!	!	!	!	!
=120	=120	=120	=120	=120	=120	=120	=120	=120	=120	=120	=120	=120	=120	=120	=120	=120
8E\	.	.	8b\	.	8dd\	.	8r	.	8r	.	8r	.	8r	.	4.ryy	4.ryy
8r	.	.	8r	.	8r	.	8E\	e-	8e\	e-	8b\	e-	8dd\	e-	.	.
.	.	.	.	.	8qcc#/	.	.	.	.	.	.	.	.	.	.	.
8r	.	.	16g#/LL	.	16b\LL	.	8E\	-rat	8e\	-rat	8g#\	-rat	8b\	-rat	.	.
.	.	.	32f#/L	.	32a\L	.	.	.	.	.	.	.	.	.	.	.
.	.	.	32g#/JJJ	.	32b\JJJ	.	.	.	.	.	.	.	.	.	.	.
!	!	!	!	!	!	!	!	!	!LO:LB:g=original	!	!	!	!	!	!	!
=121	=121	=121	=121	=121	=121	=121	=121	=121	=121	=121	=121	=121	=121	=121	=121	=121
!LO:TX:t=P:problem=mixed beam	!	!	!	!	!	!	!	!	!	!	!	!	!	!	!	!
8A\L	.	.	8a/L	.	8cc#\L	.	8r	.	8r	.	8r	.	8r	.	4.ryy	4.ryy
8AA/	.	.	16cc#/L	.	16ee\L	.	8A\	in	8e\	in	8a\	in	8cc#\	in	.	.
.	.	.	16a/	.	16cc#\	.	.	.	.	.	.	.	.	.	.	.
8D/J	x 6	.	16dd/	.	16ff#\	.	8D\	prin-	8f#\	prin-	8b\	prin-	8dd\	prin-	.	.
.	.	.	16b/JJ	.	16dd\JJ	.	.	.	.	.	.	.	.	.	.	.
!	!	!	!	!	!	!	!	!	!	!	!	!	!LO:LB:g=original	!	!	!
=122	=122	=122	=122	=122	=122	=122	=122	=122	=122	=122	=122	=122	=122	=122	=122	=122
8E\L	x 3_	.	8.g#/L	.	8.b\L	.	8E\	-ci-	8.e\	-ci-	8.g#\	-ci-	8.b\	-ci-	4.ryy	4.ryy
8D\	.	.	.	.	.	.	8D\	-pi-	.	.	.	.	.	.	.	.
.	.	.	32f#/LL	.	32a\LL	.	.	.	16d\	-pi-	16g#\	-pi-	16b\	-pi-	.	.
.	.	.	32g#/JJ	.	32b\JJ	.	.	.	.	.	.	.	.	.	.	.
8C#\J	x 6	.	8a/J	.	8cc#\J	.	8C#/	-o	8e\	-o	8a\	-o	8cc#\	-o	.	.
!	!	!	!	!	!	!	!LO:LB:g=original	!	!	!	!LO:LB:g=original	!	!	!	!	!
=123	=123	=123	=123	=123	=123	=123	=123	=123	=123	=123	=123	=123	=123	=123	=123	=123
!LO:TX:t=P:problem=mixed beam	!	!	!	!	!	!	!	!	!	!	!	!	!	!	!	!
8AA/L	.	.	8cc#\L	.	8aa\L	.	8A\	&	8A\	&	8a\	&	8cc#\	&	4.ryy	4.ryy
8A\	.	.	8cc#\	.	16aa\L	.	8A\	nunc	8A\	nunc	8e\	nunc	8cc#\	nunc	.	.
.	.	.	.	.	16gg#\	.	.	.	.	.	.	.	.	.	.	.
8A\J	.	.	8cc#\J	.	16ff#\	.	8A\	&	8A\	&	8e\	&	8cc#\	&	.	.
.	.	.	.	.	16ee\JJ	.	.	.	.	.	.	.	.	.	.	.
!LO:LB:g=original	!	!	!	!	!	!	!	!	!	!	!	!	!	!	!	!
=124	=124	=124	=124	=124	=124	=124	=124	=124	=124	=124	=124	=124	=124	=124	=124	=124
8A\L	6_ 4_	.	8dd\L	.	(16ee#X\LL	.	4.A\	Sem-	4.A\	Sem-	(4f#\	Sem-	(4dd\	Sem-	4.ryy	4.ryy
.	.	.	.	.	16ff#\)	.	.	.	.	.	.	.	.	.	.	.
8A\	.	.	8dd\	.	(16ff#\	.	.	.	.	.	.	.	.	.	.	.
.	.	.	.	.	16aa\)	.	.	.	.	.	.	.	.	.	.	.
8A\J	7 2	.	8b\J	.	(16gg#\	.	.	.	.	.	8g#\)	.	8b\)	.	.	.
.	.	.	.	.	16bb\JJ)	.	.	.	.	.	.	.	.	.	.	.
=125	=125	=125	=125	=125	=125	=125	=125	=125	=125	=125	=125	=125	=125	=125	=125	=125
8A\L	x 3_	.	8cc#\L	.	8aa\L	.	8A\	-per	8A\	-per	8a\	-per	8cc#\	-per	4.ryy	4.ryy
8A\	.	.	8cc#\	.	(16aa\L	.	8A\	&	8A\	&	8e\	&	8cc#\	&	.	.
.	.	.	.	.	16gg#\	.	.	.	.	.	.	.	.	.	.	.
8A\J	.	.	8cc#\J	.	16ff#\	.	8A\	in	8A\	in	8e\	in	8cc#\	in	.	.
.	.	.	.	.	16ee\JJ)	.	.	.	.	.	.	.	.	.	.	.
=126	=126	=126	=126	=126	=126	=126	=126	=126	=126	=126	=126	=126	=126	=126	=126	=126
8A\L	6_ 7_	.	8dd\L	.	(16ee#X\LL	.	4A\	Sae-	4A\	Sae-	4f#\	Sae-	4dd\	Sae-	4.ryy	4.ryy
.	.	.	.	.	16ff#\)	.	.	.	.	.	.	.	.	.	.	.
8A\	.	.	8dd\	.	(16ff#\	.	.	.	.	.	.	.	.	.	.	.
.	.	.	.	.	16aa\)	.	.	.	.	.	.	.	.	.	.	.
8A\J	7 2	.	8b\J	.	(16gg#\	.	8A\	-cu-	8A\	-cu-	8g#\	-cu-	8b\	-cu-	.	.
.	.	.	.	.	16bb\JJ)	.	.	.	.	.	.	.	.	.	.	.
!	!	!	!LO:LB:g=original	!	!LO:LB:g=original	!	!	!	!LO:LB:g=original	!	!	!	!	!	!	!
=127	=127	=127	=127	=127	=127	=127	=127	=127	=127	=127	=127	=127	=127	=127	=127	=127
!LO:TX:t=P:problem=mixed beam	!	!	!	!	!	!	!	!	!	!	!	!	!	!	!	!
8A\L	x 3_	.	8cc#\L	.	8aa\L	.	8A\	-la	8A\	-la	8a\	-la	8cc#\	-la	4.ryy	4.ryy
8AA/	.	.	8cc#\	.	16aa\L	.	8A\	Sae-	8e\	Sae-	8a\	Sae-	8cc#\	Sae-	.	.
.	.	.	.	.	16gg#\	.	.	.	.	.	.	.	.	.	.	.
8AA/J	.	.	8cc#\J	.	16ff#\	.	8A\	-cu-	8e\	-cu-	8a\	-cu-	8cc#\	-cu-	.	.
.	.	.	.	.	16ee\JJ	.	.	.	.	.	.	.	.	.	.	.
!	!	!	!	!	!	!	!	!	!	!	!LO:LB:g=original	!	!LO:LB:g=original	!	!	!
=128	=128	=128	=128	=128	=128	=128	=128	=128	=128	=128	=128	=128	=128	=128	=128	=128
8GG#/L	6 5	.	8b\L	.	16ee\LL	.	4G#\	-lo-	4e\	-lo-	4b\	-lo-	4dd\	-lo-	4.ryy	4.ryy
.	.	.	.	.	16dd\	.	.	.	.	.	.	.	.	.	.	.
8GG#/	.	.	8b\	.	16b\	.	.	.	.	.	.	.	.	.	.	.
.	.	.	.	.	16dd\	.	.	.	.	.	.	.	.	.	.	.
8AA/J	.	.	8cc#\J	.	16cc#\	.	8A\	-rum	8e\	-rum	8a\	-rum	8cc#\	-rum	.	.
.	.	.	.	.	16aa\JJ	.	.	.	.	.	.	.	.	.	.	.
!	!	!	!	!	!	!	!LO:LB:g=original	!	!	!	!	!	!	!	!	!
=129	=129	=129	=129	=129	=129	=129	=129	=129	=129	=129	=129	=129	=129	=129	=129	=129
8BB/L	6_ 3_	.	8dd\L	.	16aa\LL	.	4B\	a-	4.e\	a-	4g#\	a-	4dd\	a-	4.ryy	4.ryy
.	.	.	.	.	16gg#\	.	.	.	.	.	.	.	.	.	.	.
8BB/	.	.	8dd\	.	16bb\	.	.	.	.	.	.	.	.	.	.	.
.	.	.	.	.	16gg#\	.	.	.	.	.	.	.	.	.	.	.
8C#/J	6 3	.	8cc#\J	.	16aa\	.	8c#\	.	.	.	8a\	.	8cc#\	-men	.	.
.	.	.	.	.	16ee\JJ	.	.	.	.	.	.	.	.	.	.	.
=130	=130	=130	=130	=130	=130	=130	=130	=130	=130	=130	=130	=130	=130	=130	=130	=130
*	*	*	*	*	*	*	*	*	*	*	*	*	*	*ij	*	*
!LO:TX:t=P:problem=mixed beam	!	!	!	!	!	!	!	!	!	!	!	!	!	!	!	!
8D\L	x 6	.	8b/L	.	16ff#\LL	.	8d\L	.	8f#\	.	8b\L	.	8cc#\L	a-	4.ryy	4.ryy
.	.	.	.	.	16dd\J	.	.	.	.	.	.	.	.	.	.	.
8E\	x 4	.	8a/	.	8cc#\	.	8e\	.	4e\	.	8a\	.	8b\	.	.	.
8EE/J	x 3	.	8g#/J	.	8b\J	.	8E\J	.	.	.	8g#\J	.	8a\J	.	.	.
!LO:LB:g=original	!	!	!	!	!	!	!	!	!	!	!	!	!	!	!	!
=131	=131	=131	=131	=131	=131	=131	=131	=131	=131	=131	=131	=131	=131	=131	=131	=131
8AA/	.	.	16a/LL	.	16cc#\LL	.	8A\	-men	8e\	-men	8a\	-men	8cc#\	-men	4.ryy	4.ryy
.	.	.	16cc#/	.	16ee\	.	.	.	.	.	.	.	.	.	.	.
8r	.	.	16cc#/	.	16ee\	.	8r	.	8r	.	8r	.	8r	.	.	.
.	.	.	16b/	.	16dd\	.	.	.	.	.	.	.	.	.	.	.
*	*	*	*	*	*	*	*	*ij	*	*ij	*	*ij	*	*	*	*
8E\	.	.	16a/	.	16cc#\	.	8E\	a-	8e\	a-	8g#\	a-	8b\	a-	.	.
.	.	.	16g#/JJ	.	16b\JJ	.	.	.	.	.	.	.	.	.	.	.
=132	=132	=132	=132	=132	=132	=132	=132	=132	=132	=132	=132	=132	=132	=132	=132	=132
4AA/	.	.	4a/	.	4cc#\	.	4A\	-men	4e\	-men	4a\	-men	4cc#\	-men	4.ryy	4.ryy
*	*	*	*	*	*	*	*	*Xij	*	*Xij	*	*Xij	*	*Xij	*	*
8r	.	.	8r	.	8r	.	8r	.	8r	.	8r	.	8r	.	.	.
!	!	!	!LO:TX:b:t=Volti Laudate	!	!	!	!	!	!	!	!	!	!	!	!	!
==	==	==	==	==	==	==	==	==	==	==	==	==	==	==	==	==
*-	*-	*-	*-	*-	*-	*-	*-	*-	*-	*-	*-	*-	*-	*-	*-	*-
!!!system-decoration: [g1][g2][g3]g4
!!!RDF**kern: | = vertical stroke
!!!ENC: Katarzyna Serwa
!!!END: 2022-01-13
!!!ENC: Mateusz Solarz
!!!END: 2020-07-16
!!!YEC: Copyright 2022 Narodowy Instytut Fryderyka Chopina (https://polishscores.org)
!!!YEM: License CC-BY-4.0 (https://creativecommons.org/licenses/by/4.0)
